;FLAVOR:Marlin
;TIME:15070
;Filament used: 49.8476m
;Layer height: 0.4
;MINX:6.631
;MINY:0.796
;MINZ:0.4
;MAXX:223.448
;MAXY:226.743
;MAXZ:11.6
;Generated with Cura_SteamEngine 4.13.1
M140 S60
M105
M190 S60
M104 S215
M105
M109 S215
M82 ;absolute extrusion mode
; --- Global Settings
; layer_height = 0.4
; smooth_spiralized_contours = True
; magic_mesh_surface_mode = normal
; machine_extruder_count = 1
; --- Single Extruder Settings
; speed_z_hop = 5
; retraction_amount = 4.5
; retraction_hop = 0.4
; retraction_hop_enabled = True
; retraction_enable = True
; retraction_speed = 70
; retraction_retract_speed = 70
; retraction_prime_speed = 70
; speed_travel = 175.0

; Ender 3 Custom Start G-code
G92 E0 ; Reset Extruder
G28 ; Home all axes
G1 Z2.0 F3000 ; Move Z Axis up little to prevent scratching of Heat Bed
G1 X0.1 Y20 Z0.3 F5000.0 ; Move to start position
G1 X0.1 Y200.0 Z0.3 F1500.0 E15 ; Draw the first line
G1 X0.4 Y200.0 Z0.3 F5000.0 ; Move to side a little
G1 X0.4 Y20 Z0.3 F1500.0 E30 ; Draw the second line
G92 E0 ; Reset Extruder
G1 Z2.0 F3000 ; Move Z Axis up little to prevent scratching of Heat Bed
G1 X5 Y20 Z0.3 F5000.0 ; Move over to prevent blob squish
G92 E0
G92 E0
G1 F4200 E-4.5
;LAYER_COUNT:28
;LAYER:0
M107
G1 F300 Z0.8
G0 F6000 X9.218 Y7.485 Z0.8
;TYPE:SKIRT
G1 F300 Z0.4
G1 F4200 E0.3326
G1 F1200 X9.856 Y6.742 E0.46289
G1 X10.552 Y6.052 E0.59328
G1 X11.302 Y5.422 E0.72359
G1 X12.101 Y4.855 E0.85394
G1 X12.943 Y4.355 E0.98422
G1 X13.823 Y3.925 E1.11452
G1 X14.736 Y3.569 E1.2449
G1 X15.674 Y3.288 E1.37517
G1 X16.633 Y3.085 E1.50558
G1 X17.604 Y2.961 E1.63581
G1 X18.304 Y2.921 E1.72909
G1 X18.624 Y2.912 E1.77168
G1 X18.961 Y2.907 E1.81652
G1 X188.41 Y2.907 E24.36011
G1 X191.012 Y2.87 E24.70632
G1 X193.474 Y2.766 E25.03415
G1 X195.953 Y2.59 E25.36479
G1 X198.46 Y2.341 E25.69997
G1 X200.895 Y2.03 E26.02655
G1 X203.383 Y1.639 E26.36162
G1 X205.571 Y1.237 E26.65758
G1 X206.701 Y1.015 E26.81079
G1 X207.669 Y0.866 E26.94109
G1 X208.646 Y0.796 E27.07141
G1 X209.626 Y0.806 E27.20179
G1 X210.601 Y0.895 E27.33205
G1 X211.566 Y1.065 E27.46241
G1 X212.514 Y1.312 E27.59274
G1 X213.438 Y1.635 E27.72296
G1 X214.334 Y2.033 E27.8534
G1 X215.193 Y2.503 E27.98367
G1 X216.012 Y3.041 E28.11404
G1 X216.783 Y3.645 E28.24434
G1 X217.503 Y4.309 E28.37464
G1 X218.167 Y5.03 E28.50505
G1 X218.769 Y5.802 E28.63529
G1 X219.307 Y6.621 E28.76566
G1 X219.776 Y7.481 E28.89598
G1 X220.173 Y8.377 E29.02636
G1 X220.496 Y9.301 E29.15658
G1 X220.742 Y10.25 E29.28701
G1 X220.91 Y11.215 E29.41733
G1 X221.003 Y12.269 E29.5581
G1 X221.016 Y12.708 E29.61653
G1 X221.024 Y13.417 E29.71086
G1 X221.024 Y92.176 E40.189
G1 X221.061 Y94.778 E40.53521
G1 X221.165 Y97.24 E40.86304
G1 X221.341 Y99.719 E41.19368
G1 X221.59 Y102.226 E41.52885
G1 X221.901 Y104.661 E41.85544
G1 X222.287 Y107.113 E42.18567
G1 X222.962 Y110.643 E42.66381
G1 X223.177 Y111.654 E42.80133
G1 X223.341 Y112.62 E42.93168
G1 X223.429 Y113.69 E43.07452
G1 X223.44 Y114.074 E43.12562
G1 X223.448 Y114.785 E43.22022
G1 X223.447 Y211.573 E56.09695
G1 X223.437 Y212.299 E56.19355
G1 X223.383 Y213.277 E56.32386
G1 X223.25 Y214.248 E56.45425
G1 X223.039 Y215.204 E56.5845
G1 X222.749 Y216.14 E56.71486
G1 X222.385 Y217.05 E56.84525
G1 X221.948 Y217.926 E56.97549
G1 X221.44 Y218.764 E57.10587
G1 X220.866 Y219.558 E57.23621
G1 X220.229 Y220.302 E57.36652
G1 X219.534 Y220.992 E57.49681
G1 X218.784 Y221.623 E57.62721
G1 X217.986 Y222.19 E57.75745
G1 X217.144 Y222.691 E57.8878
G1 X216.264 Y223.121 E58.0181
G1 X215.351 Y223.478 E58.14852
G1 X214.413 Y223.759 E58.2788
G1 X213.455 Y223.963 E58.40911
G1 X212.483 Y224.088 E58.53949
G1 X211.775 Y224.129 E58.63384
G1 X211.455 Y224.138 E58.67643
G1 X211.118 Y224.143 E58.72127
G1 X45.994 Y224.143 E80.68945
G1 X43.392 Y224.18 E81.03566
G1 X40.93 Y224.284 E81.3635
G1 X38.451 Y224.46 E81.69413
G1 X35.944 Y224.709 E82.02931
G1 X33.509 Y225.02 E82.35589
G1 X31.02 Y225.411 E82.69109
G1 X28.572 Y225.866 E83.02235
G1 X26.406 Y226.327 E83.31697
G1 X25.859 Y226.451 E83.39159
G1 X24.896 Y226.628 E83.52186
G1 X23.921 Y226.725 E83.65221
G1 X22.941 Y226.743 E83.78261
G1 X21.964 Y226.68 E83.91286
G1 X20.995 Y226.539 E84.04314
G1 X20.04 Y226.318 E84.17355
G1 X19.107 Y226.021 E84.30381
G1 X18.201 Y225.648 E84.43416
G1 X17.328 Y225.202 E84.56459
G1 X16.495 Y224.687 E84.69488
G1 X15.707 Y224.106 E84.82513
G1 X14.968 Y223.462 E84.95554
G1 X14.285 Y222.761 E85.08575
G1 X13.661 Y222.005 E85.21617
G1 X13.101 Y221.202 E85.34641
G1 X12.608 Y220.355 E85.47679
G1 X12.186 Y219.471 E85.60711
G1 X11.837 Y218.556 E85.7374
G1 X11.564 Y217.615 E85.86775
G1 X11.369 Y216.655 E85.99808
G1 X11.253 Y215.682 E86.12845
G1 X11.224 Y215.185 E86.19468
G1 X11.214 Y214.809 E86.24472
G1 X11.206 Y214.086 E86.34092
G1 X11.206 Y142.89 E95.81287
G1 X11.169 Y140.288 E96.15908
G1 X11.065 Y137.826 E96.48691
G1 X10.887 Y135.314 E96.82195
G1 X10.644 Y132.871 E97.14857
G1 X10.324 Y130.37 E97.48402
G1 X9.944 Y127.951 E97.80979
G1 X9.482 Y125.465 E98.14619
G1 X8.961 Y123.044 E98.47566
G1 X8.388 Y120.703 E98.7963
G1 X7.395 Y117.175 E99.2839
G1 X7.156 Y116.384 E99.39384
G1 X6.91 Y115.435 E99.52427
G1 X6.743 Y114.47 E99.65456
G1 X6.649 Y113.351 E99.80396
G1 X6.639 Y112.976 E99.85386
G1 X6.631 Y112.265 E99.94846
G1 X6.632 Y15.431 E112.83131
G1 X6.642 Y14.742 E112.92298
G1 X6.696 Y13.764 E113.05329
G1 X6.83 Y12.793 E113.1837
G1 X7.043 Y11.837 E113.31401
G1 X7.332 Y10.901 E113.44433
G1 X7.698 Y9.992 E113.5747
G1 X8.136 Y9.116 E113.705
G1 X8.644 Y8.279 E113.83526
G1 X9.218 Y7.485 E113.96561
G0 F6000 X10.008 Y7.781
G1 F1200 X10.641 Y7.078 E114.09146
G1 X11.331 Y6.43 E114.2174
G1 X12.074 Y5.843 E114.34337
G1 X12.863 Y5.321 E114.46923
G1 X13.694 Y4.868 E114.59515
G1 X14.56 Y4.486 E114.72108
G1 X15.455 Y4.179 E114.84696
G1 X16.373 Y3.948 E114.9729
G1 X17.307 Y3.796 E115.09879
G1 X18.326 Y3.72 E115.23473
G1 X18.646 Y3.711 E115.27732
G1 X18.961 Y3.707 E115.31924
G1 X188.422 Y3.707 E137.86442
G1 X191.021 Y3.67 E138.21023
G1 X193.531 Y3.564 E138.54446
G1 X196.052 Y3.385 E138.88069
G1 X198.532 Y3.139 E139.21225
G1 X201.022 Y2.82 E139.54623
G1 X203.496 Y2.432 E139.8794
G1 X205.698 Y2.027 E140.17727
G1 X206.855 Y1.8 E140.33413
G1 X207.791 Y1.657 E140.4601
G1 X208.735 Y1.593 E140.58598
G1 X209.681 Y1.61 E140.71186
G1 X210.622 Y1.706 E140.8377
G1 X211.552 Y1.881 E140.9636
G1 X212.464 Y2.135 E141.08955
G1 X213.352 Y2.464 E141.21553
G1 X214.208 Y2.867 E141.34141
G1 X215.027 Y3.341 E141.4673
G1 X215.803 Y3.882 E141.59315
G1 X216.531 Y4.487 E141.71909
G1 X217.205 Y5.151 E141.84496
G1 X217.821 Y5.87 E141.97092
G1 X218.373 Y6.638 E142.09675
G1 X218.859 Y7.45 E142.22265
G1 X219.275 Y8.301 E142.34867
G1 X219.617 Y9.183 E142.47453
G1 X219.884 Y10.091 E142.60044
G1 X220.073 Y11.018 E142.72631
G1 X220.203 Y12.304 E142.89827
G1 X220.216 Y12.719 E142.95351
G1 X220.224 Y13.417 E143.04638
G1 X220.224 Y92.188 E153.52611
G1 X220.261 Y94.787 E153.87192
G1 X220.367 Y97.297 E154.20615
G1 X220.546 Y99.818 E154.54239
G1 X220.792 Y102.298 E154.87395
G1 X221.111 Y104.788 E155.20793
G1 X221.495 Y107.232 E155.53707
G1 X222.18 Y110.812 E156.02199
G1 X222.394 Y111.82 E156.15909
G1 X222.551 Y112.754 E156.28509
G1 X222.63 Y113.72 E156.41404
G1 X222.64 Y114.084 E156.46248
G1 X222.648 Y114.785 E156.55575
G1 X222.647 Y211.562 E169.43101
G1 X222.637 Y212.288 E169.52761
G1 X222.584 Y213.233 E169.65353
G1 X222.451 Y214.17 E169.77944
G1 X222.24 Y215.093 E169.9054
G1 X221.952 Y215.994 E170.03125
G1 X221.588 Y216.868 E170.15721
G1 X221.153 Y217.708 E170.28306
G1 X220.647 Y218.508 E170.40899
G1 X220.076 Y219.263 E170.53493
G1 X219.444 Y219.967 E170.66079
G1 X218.754 Y220.614 E170.78664
G1 X218.012 Y221.202 E170.91259
G1 X217.223 Y221.724 E171.03845
G1 X216.393 Y222.179 E171.16438
G1 X215.527 Y222.561 E171.2903
G1 X214.632 Y222.869 E171.41623
G1 X213.714 Y223.1 E171.54217
G1 X212.78 Y223.253 E171.66808
G1 X211.753 Y223.33 E171.8051
G1 X211.433 Y223.339 E171.84769
G1 X211.118 Y223.343 E171.8896
G1 X45.982 Y223.343 E193.85938
G1 X43.383 Y223.38 E194.20519
G1 X40.873 Y223.486 E194.53942
G1 X38.352 Y223.665 E194.87566
G1 X35.872 Y223.911 E195.20722
G1 X33.382 Y224.23 E195.5412
G1 X30.898 Y224.62 E195.87572
G1 X28.445 Y225.076 E196.20766
G1 X26.236 Y225.546 E196.50812
G1 X25.683 Y225.671 E196.58355
G1 X24.752 Y225.84 E196.70944
G1 X23.81 Y225.93 E196.83533
G1 X22.863 Y225.94 E196.96133
G1 X21.92 Y225.871 E197.08712
G1 X20.985 Y225.722 E197.21308
G1 X20.067 Y225.494 E197.33892
G1 X19.17 Y225.19 E197.46493
G1 X18.303 Y224.811 E197.59081
G1 X17.471 Y224.36 E197.71672
G1 X16.68 Y223.841 E197.84258
G1 X15.935 Y223.257 E197.96852
G1 X15.243 Y222.612 E198.09438
G1 X14.607 Y221.911 E198.2203
G1 X14.033 Y221.158 E198.34627
G1 X13.525 Y220.36 E198.47212
G1 X13.085 Y219.522 E198.59804
G1 X12.718 Y218.65 E198.72391
G1 X12.426 Y217.749 E198.84992
G1 X12.211 Y216.828 E198.97574
G1 X12.075 Y215.891 E199.10171
G1 X12.023 Y215.155 E199.19987
G1 X12.014 Y214.8 E199.24712
G1 X12.006 Y214.086 E199.34211
G1 X12.006 Y142.878 E208.81566
G1 X11.969 Y140.279 E209.16147
G1 X11.863 Y137.769 E209.4957
G1 X11.684 Y135.251 E209.83154
G1 X11.437 Y132.76 E210.16457
G1 X11.121 Y130.286 E210.49639
G1 X10.727 Y127.782 E210.83362
G1 X10.272 Y125.334 E211.16488
G1 X9.74 Y122.863 E211.50116
G1 X9.161 Y120.497 E211.82522
G1 X8.171 Y116.979 E212.31143
G1 X7.921 Y116.152 E212.42638
G1 X7.686 Y115.235 E212.55232
G1 X7.528 Y114.302 E212.67821
G1 X7.449 Y113.322 E212.80901
G1 X7.439 Y112.966 E212.85639
G1 X7.431 Y112.265 E212.94966
G1 X7.432 Y15.442 E225.83105
G1 X7.442 Y14.753 E225.92272
G1 X7.496 Y13.809 E226.04852
G1 X7.629 Y12.872 E226.17442
G1 X7.841 Y11.949 E226.30042
G1 X8.13 Y11.048 E226.4263
G1 X8.494 Y10.175 E226.55214
G1 X8.931 Y9.335 E226.67811
G1 X9.436 Y8.535 E226.80398
G1 X10.008 Y7.781 E226.92989
G0 F6000 X10.228 Y8.801
G1 F1200 X10.796 Y8.088 E227.05117
G1 X11.425 Y7.427 E227.17256
G1 X12.108 Y6.824 E227.29377
G1 X12.842 Y6.283 E227.41508
G1 X13.621 Y5.808 E227.53647
G1 X14.438 Y5.403 E227.65778
G1 X15.288 Y5.071 E227.77919
G1 X16.163 Y4.816 E227.90044
G1 X17.057 Y4.637 E228.02174
G1 X18.349 Y4.52 E228.19433
G1 X18.669 Y4.511 E228.23692
G1 X18.961 Y4.507 E228.27577
G1 X188.433 Y4.507 E250.82242
G1 X191.032 Y4.47 E251.16823
G1 X193.584 Y4.362 E251.50805
G1 X196.118 Y4.182 E251.84602
G1 X198.609 Y3.935 E252.17905
G1 X201.14 Y3.611 E252.51853
G1 X203.646 Y3.218 E252.856
G1 X205.839 Y2.815 E253.15264
G1 X207.009 Y2.585 E253.31128
G1 X207.911 Y2.449 E253.43264
G1 X208.821 Y2.392 E253.55394
G1 X209.733 Y2.415 E253.67532
G1 X210.639 Y2.518 E253.79663
G1 X211.532 Y2.7 E253.91787
G1 X212.407 Y2.959 E254.03928
G1 X213.255 Y3.294 E254.16058
G1 X214.07 Y3.702 E254.28184
G1 X214.847 Y4.18 E254.4032
G1 X215.579 Y4.724 E254.52454
G1 X216.26 Y5.33 E254.64582
G1 X216.886 Y5.993 E254.76713
G1 X217.451 Y6.709 E254.88847
G1 X217.951 Y7.472 E255.00983
G1 X218.383 Y8.275 E255.13114
G1 X218.742 Y9.113 E255.25243
G1 X219.027 Y9.979 E255.37372
G1 X219.235 Y10.867 E255.49506
G1 X219.364 Y11.77 E255.61642
G1 X219.404 Y12.338 E255.69217
G1 X219.416 Y12.729 E255.74421
G1 X219.424 Y13.417 E255.83575
G1 X219.424 Y92.199 E266.31695
G1 X219.461 Y94.798 E266.66276
G1 X219.569 Y97.35 E267.00258
G1 X219.749 Y99.884 E267.34056
G1 X219.996 Y102.375 E267.67359
G1 X220.32 Y104.906 E268.01306
G1 X220.71 Y107.39 E268.34758
G1 X221.387 Y110.923 E268.82617
G1 X221.612 Y111.986 E268.97072
G1 X221.762 Y112.886 E269.09211
G1 X221.831 Y113.75 E269.20742
G1 X221.84 Y114.094 E269.2532
G1 X221.848 Y114.785 E269.34514
G1 X221.847 Y211.551 E282.21894
G1 X221.837 Y212.277 E282.31554
G1 X221.784 Y213.188 E282.43694
G1 X221.652 Y214.09 E282.55822
G1 X221.442 Y214.977 E282.67949
G1 X221.154 Y215.843 E282.80091
G1 X220.792 Y216.68 E282.92223
G1 X220.358 Y217.481 E283.04344
G1 X219.855 Y218.242 E283.1648
G1 X219.288 Y218.956 E283.2861
G1 X218.66 Y219.618 E283.40749
G1 X217.977 Y220.221 E283.52871
G1 X217.243 Y220.763 E283.6501
G1 X216.465 Y221.238 E283.77137
G1 X215.648 Y221.644 E283.89274
G1 X214.799 Y221.976 E284.01402
G1 X213.924 Y222.233 E284.13535
G1 X213.029 Y222.412 E284.25678
G1 X211.73 Y222.53 E284.43031
G1 X211.41 Y222.539 E284.4729
G1 X211.118 Y222.543 E284.51175
G1 X45.971 Y222.543 E306.483
G1 X43.372 Y222.58 E306.82881
G1 X40.82 Y222.688 E307.16863
G1 X38.286 Y222.868 E307.50661
G1 X35.795 Y223.115 E307.83963
G1 X33.264 Y223.439 E308.17911
G1 X30.771 Y223.83 E308.51483
G1 X28.253 Y224.298 E308.85557
G1 X26.128 Y224.751 E309.14463
G1 X25.507 Y224.891 E309.22932
G1 X24.609 Y225.052 E309.3507
G1 X23.701 Y225.135 E309.472
G1 X22.789 Y225.137 E309.59333
G1 X21.88 Y225.06 E309.7147
G1 X20.982 Y224.903 E309.83598
G1 X20.101 Y224.669 E309.95726
G1 X19.244 Y224.357 E310.07859
G1 X18.417 Y223.973 E310.1999
G1 X17.627 Y223.517 E310.32125
G1 X16.88 Y222.993 E310.44265
G1 X16.182 Y222.407 E310.5639
G1 X15.538 Y221.761 E310.68525
G1 X14.953 Y221.062 E310.80652
G1 X14.432 Y220.313 E310.9279
G1 X13.978 Y219.523 E311.04912
G1 X13.595 Y218.695 E311.1705
G1 X13.286 Y217.837 E311.29182
G1 X13.053 Y216.955 E311.41319
G1 X12.899 Y216.056 E311.53453
G1 X12.823 Y215.126 E311.65867
G1 X12.814 Y214.79 E311.70339
G1 X12.806 Y214.086 E311.79706
G1 X12.806 Y142.867 E321.27207
G1 X12.769 Y140.268 E321.61788
G1 X12.661 Y137.713 E321.9581
G1 X12.482 Y135.187 E322.29501
G1 X12.234 Y132.687 E322.62924
G1 X11.911 Y130.164 E322.96764
G1 X11.517 Y127.655 E323.30553
G1 X11.054 Y125.163 E323.64274
G1 X10.518 Y122.673 E323.9816
G1 X9.937 Y120.305 E324.30598
G1 X8.93 Y116.724 E324.80088
G1 X8.687 Y115.92 E324.91262
G1 X8.461 Y115.037 E325.03388
G1 X8.314 Y114.137 E325.15521
G1 X8.248 Y113.292 E325.26797
G1 X8.239 Y112.956 E325.31269
G1 X8.231 Y112.265 E325.40462
G1 X8.232 Y15.454 E338.28441
G1 X8.242 Y14.765 E338.37609
G1 X8.295 Y13.855 E338.49736
G1 X8.428 Y12.952 E338.61879
G1 X8.639 Y12.065 E338.74009
G1 X8.927 Y11.2 E338.86138
G1 X9.29 Y10.364 E338.98264
G1 X9.725 Y9.562 E339.10402
G1 X10.228 Y8.801 E339.22538
G1 F4200 E334.72538
G1 F300 Z0.8
;MESH:Support Struts.3mf
G0 F6000 X23.931 Y99.743 Z0.8
;TYPE:WALL-INNER
G1 F300 Z0.4
G1 F4200 E339.55798
G1 F1200 X153.873 Y25.491 E359.4689
G1 X153.399 Y23.707 E359.71448
G1 X23.931 Y23.707 E376.93897
G1 X23.931 Y99.743 E387.05484
G1 F4200 E382.55484
G1 F300 Z0.8
G0 F6000 X24.731 Y98.364 Z0.8
;TYPE:WALL-OUTER
G1 F300 Z0.4
G1 F4200 E387.38745
G1 F1200 X152.942 Y25.102 E407.03307
G1 X152.784 Y24.507 E407.11497
G1 X24.731 Y24.507 E424.15121
G1 X24.731 Y98.364 E433.97719
G1 F4200 E429.47719
G1 F300 Z0.8
G0 F6000 X19.831 Y110.839 Z0.8
;TYPE:WALL-INNER
G1 F300 Z0.4
G1 F4200 E434.30979
G1 F1200 X19.831 Y16.107 E446.91299
G1 X184.109 Y16.107 E468.76862
G1 X185.613 Y16.107 E468.96871
G1 X184.308 Y16.853 E469.07203
G1 X19.831 Y110.839 E494.27472
G1 F4200 E489.77472
G1 F300 Z0.8
G0 F6000 X19.031 Y112.218 Z0.8
;TYPE:WALL-OUTER
G1 F300 Z0.4
G1 F4200 E494.60732
G1 F1200 X19.031 Y15.307 E507.50041
G1 X188.626 Y15.307 E530.06342
G1 X19.031 Y112.218 E556.05037
G1 F4200 E551.55037
G1 F300 Z0.8
G0 F6000 X20.621 Y109.478 Z0.8
;TYPE:SKIN
G1 F300 Z0.4
G1 F4200 E556.38297
G1 F1200 X20.621 Y16.897 E568.69999
G1 X182.639 Y16.897 E590.25496
G1 X20.621 Y109.478 E615.08086
G1 F4200 E610.58086
G1 F300 Z0.8
G0 F6000 X23.141 Y101.104 Z0.8
G1 F300 Z0.4
G1 F4200 E615.41346
G1 F1200 X154.793 Y25.876 E635.58633
G1 X154.007 Y22.917 E635.99365
G1 X23.141 Y22.917 E653.40413
G1 X23.141 Y101.104 E663.80617
G1 F4200 E659.30617
G1 F300 Z0.8
G0 F6000 X21.493 Y108.609 Z0.8
G1 F300 Z0.4
G1 F4200 E664.13877
G1 F1200 X20.94 Y108.055 E664.24291
G0 F6000 X20.94 Y106.924
G1 F1200 X22.213 Y108.197 E664.48243
G0 F6000 X22.934 Y107.787
G1 F1200 X20.94 Y105.793 E664.85759
G0 F6000 X20.94 Y104.661
G1 F1200 X23.654 Y107.375 E665.36823
G0 F6000 X24.373 Y106.964
G1 F1200 X20.94 Y103.53 E666.01423
G0 F6000 X20.94 Y102.398
G1 F1200 X25.093 Y106.552 E666.7957
G0 F6000 X25.813 Y106.14
G1 F1200 X20.94 Y101.267 E667.71255
G0 F6000 X20.94 Y100.136
G1 F1200 X26.534 Y105.73 E668.76504
G0 F6000 X27.254 Y105.318
G1 F1200 X23.31 Y101.375 E669.50701
G0 F6000 X22.82 Y100.885
G1 F1200 X20.94 Y99.004 E669.86082
G0 F6000 X20.94 Y97.873
G1 F1200 X22.82 Y99.753 E670.21454
G0 F6000 X22.82 Y98.622
