;FLAVOR:Marlin
;TIME:5152
;Filament used: 16.4679m
;Layer height: 0.4
;MINX:93.563
;MINY:67.836
;MINZ:0.4
;MAXX:136.437
;MAXY:162.164
;MAXZ:65.2
;Generated with Cura_SteamEngine 4.13.1
M140 S60
M105
M190 S60
M104 S215
M105
M109 S215
M82 ;absolute extrusion mode
; --- Global Settings
; layer_height = 0.4
; smooth_spiralized_contours = True
; magic_mesh_surface_mode = normal
; machine_extruder_count = 1
; --- Single Extruder Settings
; speed_z_hop = 5
; retraction_amount = 4.5
; retraction_hop = 0.4
; retraction_hop_enabled = True
; retraction_enable = True
; retraction_speed = 70
; retraction_retract_speed = 70
; retraction_prime_speed = 70
; speed_travel = 175.0

; Ender 3 Custom Start G-code
G92 E0 ; Reset Extruder
G28 ; Home all axes
G1 Z2.0 F3000 ; Move Z Axis up little to prevent scratching of Heat Bed
G1 X0.1 Y20 Z0.3 F5000.0 ; Move to start position
G1 X0.1 Y200.0 Z0.3 F1500.0 E15 ; Draw the first line
G1 X0.4 Y200.0 Z0.3 F5000.0 ; Move to side a little
G1 X0.4 Y20 Z0.3 F1500.0 E30 ; Draw the second line
G92 E0 ; Reset Extruder
G1 Z2.0 F3000 ; Move Z Axis up little to prevent scratching of Heat Bed
G1 X5 Y20 Z0.3 F5000.0 ; Move over to prevent blob squish
G92 E0
G92 E0
G1 F4200 E-4.5
;LAYER_COUNT:163
;LAYER:0
M107
G1 F300 Z0.8
G0 F6000 X95.744 Y77.511 Z0.8
;TYPE:SKIRT
G1 F300 Z0.4
G1 F4200 E0.3326
G1 F1200 X96.289 Y76.954 E0.43628
G1 X97.108 Y76.296 E0.57605
G1 X97.19 Y76.239 E0.58933
G1 X97.852 Y75.827 E0.69307
G1 X98.906 Y75.346 E0.84721
G1 X99.344 Y75.185 E0.90929
G1 X100.088 Y74.954 E1.01293
G1 X100.515 Y74.858 E1.07116
G1 X100.587 Y74.844 E1.08092
G1 X101.359 Y74.734 E1.18466
G1 X102.038 Y74.704 E1.27509
G1 X127.962 Y74.704 E4.72403
G1 X128.74 Y74.744 E4.82767
G1 X129.393 Y74.84 E4.91548
G1 X129.466 Y74.854 E4.92537
G1 X130.223 Y75.04 E5.02908
G1 X130.673 Y75.191 E5.09222
G1 X131.108 Y75.352 E5.15393
G1 X131.824 Y75.659 E5.25758
G1 X132.505 Y76.039 E5.36133
G1 X133.144 Y76.486 E5.46508
G1 X133.681 Y76.947 E5.55924
G1 X133.853 Y77.109 E5.59067
G1 X134.392 Y77.671 E5.69427
G1 X134.871 Y78.287 E5.79808
G1 X135.298 Y78.972 E5.90547
G1 X135.341 Y79.05 E5.91732
G1 X135.681 Y79.751 E6.02097
G1 X135.978 Y80.58 E6.13813
G1 X136.122 Y81.071 E6.2062
G1 X136.353 Y82.135 E6.35105
G1 X136.361 Y82.191 E6.35858
G1 X136.437 Y83.266 E6.50196
G1 X136.436 Y146.731 E14.94537
G1 X136.367 Y147.752 E15.08152
G1 X136.359 Y147.811 E15.08944
G1 X136.127 Y148.909 E15.23874
G1 X135.985 Y149.398 E15.30649
G1 X135.729 Y150.135 E15.41029
G1 X135.399 Y150.841 E15.51397
G1 X134.877 Y151.687 E15.64622
G1 X134.746 Y151.871 E15.67627
G1 X134.262 Y152.482 E15.77997
G1 X133.718 Y153.04 E15.88365
G1 X132.908 Y153.693 E16.02207
G1 X132.825 Y153.751 E16.03554
G1 X132.164 Y154.164 E16.13923
G1 X131.464 Y154.507 E16.24294
G1 X131.094 Y154.654 E16.29591
G1 X130.656 Y154.815 E16.35799
G1 X129.912 Y155.046 E16.46164
G1 X129.485 Y155.142 E16.51986
G1 X129.413 Y155.156 E16.52962
G1 X128.641 Y155.266 E16.63337
G1 X127.962 Y155.296 E16.72379
G1 X102.038 Y155.296 E20.17273
G1 X101.26 Y155.256 E20.27637
G1 X100.607 Y155.16 E20.36418
G1 X100.534 Y155.146 E20.37407
G1 X99.777 Y154.96 E20.47778
G1 X99.327 Y154.809 E20.54093
G1 X98.892 Y154.648 E20.60264
G1 X98.176 Y154.341 E20.70628
G1 X97.495 Y153.961 E20.81003
G1 X96.856 Y153.514 E20.91378
G1 X96.319 Y153.053 E21.00794
G1 X96.147 Y152.891 E21.03937
G1 X95.608 Y152.329 E21.14297
G1 X95.129 Y151.713 E21.24679
G1 X94.702 Y151.028 E21.35417
G1 X94.659 Y150.95 E21.36602
G1 X94.319 Y150.249 E21.46968
G1 X94.022 Y149.42 E21.58683
G1 X93.878 Y148.929 E21.65491
G1 X93.647 Y147.865 E21.79976
G1 X93.639 Y147.809 E21.80728
G1 X93.563 Y146.734 E21.95066
G1 X93.564 Y83.269 E30.39408
G1 X93.633 Y82.248 E30.53022
G1 X93.641 Y82.189 E30.53814
G1 X93.873 Y81.091 E30.68745
G1 X94.015 Y80.602 E30.75519
G1 X94.271 Y79.865 E30.85899
G1 X94.601 Y79.159 E30.96267
G1 X95.127 Y78.307 E31.09588
G1 X95.259 Y78.122 E31.12612
G1 X95.744 Y77.511 E31.2299
G0 F6000 X96.371 Y78.01
G1 F1200 X96.891 Y77.487 E31.32802
G1 X97.565 Y76.952 E31.4425
G1 X97.647 Y76.895 E31.45579
G1 X98.274 Y76.508 E31.55382
G1 X99.182 Y76.097 E31.68642
G1 X99.62 Y75.936 E31.7485
G1 X100.668 Y75.643 E31.89327
G1 X100.74 Y75.629 E31.90303
G1 X101.47 Y75.528 E32.00108
G1 X102.038 Y75.504 E32.07671
G1 X127.962 Y75.504 E35.52565
G1 X128.698 Y75.544 E35.62372
G1 X129.243 Y75.626 E35.69704
G1 X129.316 Y75.64 E35.70693
G1 X130.031 Y75.818 E35.80496
G1 X130.395 Y75.941 E35.85607
G1 X130.83 Y76.102 E35.91778
G1 X131.507 Y76.395 E36.01592
G1 X132.148 Y76.759 E36.11399
G1 X132.745 Y77.191 E36.21203
G1 X133.132 Y77.529 E36.28039
G1 X133.304 Y77.691 E36.31183
G1 X133.813 Y78.225 E36.40997
G1 X134.261 Y78.811 E36.50811
G1 X134.597 Y79.358 E36.59351
G1 X134.64 Y79.436 E36.60536
G1 X134.96 Y80.1 E36.70343
G1 X135.21 Y80.805 E36.80294
G1 X135.354 Y81.296 E36.87102
G1 X135.561 Y82.248 E37.00063
G1 X135.569 Y82.304 E37.00816
G1 X135.637 Y83.266 E37.13646
G1 X135.636 Y146.731 E45.57988
G1 X135.574 Y147.645 E45.70176
G1 X135.566 Y147.704 E45.70968
G1 X135.358 Y148.686 E45.84322
G1 X135.216 Y149.175 E45.91097
G1 X134.973 Y149.871 E46.00904
G1 X134.655 Y150.537 E46.10723
G1 X134.225 Y151.223 E46.21495
G1 X134.094 Y151.407 E46.245
G1 X133.635 Y151.983 E46.34298
G1 X133.116 Y152.507 E46.4411
G1 X132.45 Y153.037 E46.55434
G1 X132.367 Y153.095 E46.56781
G1 X131.741 Y153.484 E46.66586
G1 X130.818 Y153.903 E46.80072
G1 X130.38 Y154.064 E46.8628
G1 X129.332 Y154.357 E47.00758
G1 X129.26 Y154.371 E47.01734
G1 X128.53 Y154.472 E47.11538
G1 X127.962 Y154.496 E47.19102
G1 X102.038 Y154.496 E50.63996
G1 X101.302 Y154.456 E50.73802
G1 X100.757 Y154.374 E50.81134
G1 X100.684 Y154.36 E50.82123
G1 X99.969 Y154.182 E50.91926
G1 X99.605 Y154.059 E50.97038
G1 X99.17 Y153.898 E51.03209
G1 X98.493 Y153.605 E51.13023
G1 X97.852 Y153.241 E51.2283
G1 X97.255 Y152.809 E51.32634
G1 X96.868 Y152.471 E51.3947
G1 X96.696 Y152.309 E51.42613
G1 X96.187 Y151.775 E51.52428
G1 X95.739 Y151.189 E51.62241
G1 X95.403 Y150.642 E51.70782
G1 X95.36 Y150.564 E51.71967
G1 X95.04 Y149.9 E51.81773
G1 X94.79 Y149.195 E51.91725
G1 X94.646 Y148.704 E51.98532
G1 X94.439 Y147.752 E52.11493
G1 X94.431 Y147.696 E52.12246
G1 X94.363 Y146.734 E52.25076
G1 X94.364 Y83.269 E60.69418
G1 X94.426 Y82.355 E60.81606
G1 X94.434 Y82.296 E60.82398
G1 X94.642 Y81.314 E60.95753
G1 X94.784 Y80.825 E61.02527
G1 X95.027 Y80.129 E61.12335
G1 X95.345 Y79.463 E61.22154
G1 X95.779 Y78.771 E61.33021
G1 X95.911 Y78.586 E61.36044
G1 X96.371 Y78.01 E61.45851
G0 F6000 X96.996 Y78.511
G1 F1200 X97.489 Y78.026 E61.55052
G1 X98.021 Y77.609 E61.64045
G1 X98.103 Y77.552 E61.65374
G1 X98.694 Y77.191 E61.74587
G1 X99.458 Y76.847 E61.85734
G1 X99.896 Y76.686 E61.91943
G1 X100.821 Y76.428 E62.04719
G1 X100.893 Y76.414 E62.05694
G1 X101.579 Y76.322 E62.14903
G1 X102.038 Y76.304 E62.21014
G1 X127.962 Y76.304 E65.65908
G1 X128.653 Y76.344 E65.75117
G1 X129.092 Y76.411 E65.81025
G1 X129.165 Y76.425 E65.82014
G1 X130.118 Y76.691 E65.95177
G1 X130.553 Y76.852 E66.01348
G1 X131.187 Y77.13 E66.10558
G1 X131.785 Y77.478 E66.19763
G1 X132.584 Y78.111 E66.33325
G1 X132.756 Y78.273 E66.36468
G1 X133.232 Y78.776 E66.45681
G1 X133.646 Y79.331 E66.54893
G1 X133.896 Y79.744 E66.61316
G1 X133.939 Y79.822 E66.62501
G1 X134.238 Y80.447 E66.71718
G1 X134.442 Y81.03 E66.79936
G1 X134.586 Y81.521 E66.86743
G1 X134.769 Y82.361 E66.98181
G1 X134.777 Y82.417 E66.98933
G1 X134.837 Y83.266 E67.10257
G1 X134.836 Y146.731 E75.54598
G1 X134.782 Y147.537 E75.65346
G1 X134.774 Y147.596 E75.66138
G1 X134.59 Y148.463 E75.77929
G1 X134.448 Y148.952 E75.84704
G1 X134.217 Y149.605 E75.93919
G1 X133.912 Y150.227 E76.03135
G1 X133.574 Y150.759 E76.11521
G1 X133.443 Y150.943 E76.14526
G1 X133.009 Y151.483 E76.23743
G1 X132.516 Y151.969 E76.32953
G1 X131.992 Y152.381 E76.41821
G1 X131.909 Y152.439 E76.43168
G1 X131.319 Y152.802 E76.52384
G1 X130.542 Y153.153 E76.63727
G1 X130.104 Y153.314 E76.69935
G1 X129.179 Y153.572 E76.82711
G1 X129.107 Y153.586 E76.83687
G1 X128.421 Y153.678 E76.92895
G1 X127.962 Y153.696 E76.99007
G1 X102.038 Y153.696 E80.43901
G1 X101.347 Y153.656 E80.53109
G1 X100.908 Y153.589 E80.59018
G1 X100.835 Y153.575 E80.60006
G1 X99.882 Y153.309 E80.7317
G1 X99.447 Y153.148 E80.79341
G1 X98.813 Y152.87 E80.88551
G1 X98.215 Y152.522 E80.97756
G1 X97.416 Y151.889 E81.11317
G1 X97.244 Y151.727 E81.14461
G1 X96.768 Y151.224 E81.23674
G1 X96.354 Y150.669 E81.32886
G1 X96.104 Y150.256 E81.39309
G1 X96.061 Y150.178 E81.40494
G1 X95.762 Y149.553 E81.49711
G1 X95.558 Y148.97 E81.57929
G1 X95.414 Y148.479 E81.64736
G1 X95.231 Y147.639 E81.76174
G1 X95.223 Y147.583 E81.76926
G1 X95.163 Y146.734 E81.88249
G1 X95.164 Y83.269 E90.32591
G1 X95.218 Y82.463 E90.43338
G1 X95.226 Y82.404 E90.44131
G1 X95.41 Y81.537 E90.55922
G1 X95.552 Y81.048 E90.62696
G1 X95.783 Y80.395 E90.71912
G1 X96.088 Y79.773 E90.81128
G1 X96.43 Y79.236 E90.89598
G1 X96.562 Y79.051 E90.92622
G1 X96.996 Y78.511 E91.01839
G0 F6000 X97.619 Y79.015
G1 F1200 X98.084 Y78.569 E91.10411
G1 X98.478 Y78.266 E91.17023
G1 X98.56 Y78.209 E91.18352
G1 X99.111 Y77.875 E91.26924
G1 X99.734 Y77.598 E91.35995
G1 X100.172 Y77.437 E91.42203
G1 X100.973 Y77.214 E91.53265
G1 X101.045 Y77.2 E91.54241
G1 X101.685 Y77.116 E91.62828
G1 X102.038 Y77.104 E91.67527
G1 X127.962 Y77.104 E95.12422
G1 X128.605 Y77.144 E95.20993
G1 X128.941 Y77.197 E95.25518
G1 X129.014 Y77.211 E95.26507
G1 X129.84 Y77.441 E95.37914
G1 X130.275 Y77.602 E95.44085
G1 X130.864 Y77.863 E95.52656
G1 X131.417 Y78.195 E95.61237
G1 X132.035 Y78.694 E95.71805
G1 X132.207 Y78.856 E95.74948
G1 X132.648 Y79.326 E95.83523
G1 X133.028 Y79.847 E95.92102
G1 X133.196 Y80.131 E95.96492
G1 X133.239 Y80.209 E95.97677
G1 X133.514 Y80.791 E96.06241
G1 X133.675 Y81.256 E96.12787
G1 X133.819 Y81.747 E96.19595
G1 X133.977 Y82.475 E96.29506
G1 X133.985 Y82.531 E96.30258
G1 X134.037 Y83.266 E96.40061
G1 X134.036 Y146.731 E104.84403
G1 X133.989 Y147.43 E104.93724
G1 X133.981 Y147.489 E104.94516
G1 X133.822 Y148.24 E105.04728
G1 X133.68 Y148.729 E105.11503
G1 X133.462 Y149.336 E105.20083
G1 X133.171 Y149.911 E105.28657
G1 X132.922 Y150.295 E105.34746
G1 X132.791 Y150.479 E105.37751
G1 X132.385 Y150.98 E105.4633
G1 X131.921 Y151.427 E105.54902
G1 X131.534 Y151.725 E105.614
G1 X131.451 Y151.783 E105.62747
G1 X130.9 Y152.119 E105.71333
G1 X130.266 Y152.402 E105.8057
G1 X129.828 Y152.563 E105.86778
G1 X129.027 Y152.786 E105.9784
G1 X128.955 Y152.8 E105.98816
G1 X128.315 Y152.884 E106.07404
G1 X127.962 Y152.896 E106.12103
G1 X102.038 Y152.896 E109.56997
G1 X101.395 Y152.856 E109.65568
G1 X101.059 Y152.803 E109.70093
G1 X100.986 Y152.789 E109.71082
G1 X100.16 Y152.559 E109.8249
G1 X99.725 Y152.398 E109.88661
G1 X99.136 Y152.137 E109.97232
G1 X98.583 Y151.805 E110.05813
G1 X97.965 Y151.306 E110.1638
G1 X97.793 Y151.144 E110.19524
G1 X97.352 Y150.674 E110.28098
G1 X96.972 Y150.153 E110.36677
G1 X96.804 Y149.869 E110.41067
G1 X96.761 Y149.791 E110.42252
G1 X96.486 Y149.209 E110.50816
G1 X96.325 Y148.744 E110.57363
G1 X96.181 Y148.253 E110.6417
G1 X96.023 Y147.525 E110.74081
G1 X96.015 Y147.469 E110.74834
G1 X95.963 Y146.734 E110.84637
G1 X95.964 Y83.269 E119.28978
G1 X96.011 Y82.57 E119.38299
G1 X96.019 Y82.511 E119.39091
G1 X96.178 Y81.76 E119.49304
G1 X96.32 Y81.271 E119.56078
G1 X96.538 Y80.664 E119.64659
G1 X96.829 Y80.089 E119.73233
G1 X97.081 Y79.701 E119.79388
G1 X97.213 Y79.516 E119.82411
G1 X97.619 Y79.015 E119.9099
G0 F6000 X98.24 Y79.522
G1 F1200 X98.675 Y79.118 E119.98889
G1 X98.935 Y78.923 E120.03212
G1 X99.017 Y78.866 E120.04541
G1 X99.525 Y78.561 E120.12424
G1 X100.01 Y78.349 E120.19466
G1 X100.448 Y78.188 E120.25674
G1 X101.126 Y77.999 E120.35038
G1 X101.198 Y77.985 E120.36014
G1 X102.038 Y77.904 E120.47242
G1 X127.962 Y77.904 E123.92136
G1 X128.791 Y77.983 E124.03215
G1 X128.864 Y77.997 E124.04204
G1 X129.562 Y78.192 E124.13846
G1 X129.997 Y78.353 E124.20016
G1 X130.538 Y78.595 E124.27901
G1 X131.042 Y78.909 E124.35801
G1 X131.487 Y79.276 E124.43475
G1 X131.659 Y79.438 E124.46619
G1 X132.062 Y79.873 E124.54508
G1 X132.495 Y80.517 E124.64832
G1 X132.538 Y80.595 E124.66017
G1 X132.789 Y81.132 E124.73903
G1 X132.907 Y81.481 E124.78805
G1 X133.051 Y81.972 E124.85612
G1 X133.185 Y82.588 E124.93999
G1 X133.193 Y82.644 E124.94752
G1 X133.237 Y83.266 E125.03048
G1 X133.236 Y146.731 E133.47389
G1 X133.196 Y147.322 E133.5527
G1 X133.188 Y147.381 E133.56062
G1 X133.053 Y148.017 E133.64712
G1 X132.911 Y148.506 E133.71486
G1 X132.708 Y149.063 E133.79374
G1 X132.27 Y149.831 E133.91136
G1 X132.139 Y150.015 E133.94141
G1 X131.764 Y150.474 E134.02026
G1 X131.33 Y150.878 E134.09915
G1 X131.075 Y151.07 E134.14161
G1 X130.992 Y151.128 E134.15509
G1 X130.484 Y151.434 E134.23399
G1 X129.99 Y151.651 E134.30577
G1 X129.552 Y151.812 E134.36785
G1 X128.874 Y152.001 E134.46149
G1 X128.802 Y152.015 E134.47125
G1 X127.962 Y152.096 E134.58352
G1 X102.038 Y152.096 E138.03247
G1 X101.209 Y152.017 E138.14326
G1 X101.136 Y152.003 E138.15315
G1 X100.438 Y151.808 E138.24956
G1 X100.003 Y151.647 E138.31127
G1 X99.462 Y151.405 E138.39012
G1 X98.958 Y151.091 E138.46912
G1 X98.513 Y150.724 E138.54586
G1 X98.341 Y150.562 E138.5773
G1 X97.938 Y150.127 E138.65619
G1 X97.505 Y149.483 E138.75943
G1 X97.462 Y149.405 E138.77128
G1 X97.211 Y148.868 E138.85014
G1 X97.093 Y148.519 E138.89916
G1 X96.949 Y148.028 E138.96723
G1 X96.815 Y147.412 E139.0511
G1 X96.807 Y147.356 E139.05863
G1 X96.763 Y146.734 E139.14158
G1 X96.764 Y83.269 E147.585
G1 X96.804 Y82.678 E147.66381
G1 X96.812 Y82.619 E147.67173
G1 X96.947 Y81.983 E147.75823
G1 X97.089 Y81.494 E147.82597
G1 X97.292 Y80.937 E147.90484
G1 X97.732 Y80.165 E148.02306
G1 X97.864 Y79.98 E148.0533
G1 X98.24 Y79.522 E148.13213
G0 F6000 X98.859 Y80.033
G1 F1200 X99.391 Y79.58 E148.22509
G1 X99.473 Y79.523 E148.23838
G1 X99.935 Y79.251 E148.30971
G1 X100.286 Y79.1 E148.36054
G1 X100.724 Y78.939 E148.42262
G1 X101.279 Y78.784 E148.49929
G1 X101.351 Y78.77 E148.50905
G1 X102.038 Y78.704 E148.60087
G1 X127.962 Y78.704 E152.04981
G1 X128.64 Y78.768 E152.14041
G1 X128.713 Y78.782 E152.1503
G1 X129.285 Y78.942 E152.22932
G1 X129.72 Y79.103 E152.29103
G1 X130.207 Y79.326 E152.36229
G1 X130.656 Y79.619 E152.43362
G1 X130.938 Y79.858 E152.4828
G1 X131.11 Y80.02 E152.51423
G1 X131.472 Y80.416 E152.58561
G1 X131.795 Y80.903 E152.66336
G1 X131.838 Y80.981 E152.67521
G1 X132.139 Y81.706 E152.77964
G1 X132.283 Y82.197 E152.84772
G1 X132.393 Y82.701 E152.91635
G1 X132.401 Y82.757 E152.92388
G1 X132.437 Y83.266 E152.99176
G1 X132.436 Y146.731 E161.43518
G1 X132.403 Y147.215 E161.49972
G1 X132.395 Y147.274 E161.50764
G1 X132.285 Y147.794 E161.57835
G1 X132.143 Y148.283 E161.6461
G1 X131.956 Y148.785 E161.71737
G1 X131.619 Y149.367 E161.80684
G1 X131.488 Y149.551 E161.83689
G1 X131.145 Y149.963 E161.90821
G1 X130.617 Y150.414 E162.0006
G1 X130.534 Y150.472 E162.01407
G1 X130.073 Y150.745 E162.08535
G1 X129.714 Y150.9 E162.13737
G1 X129.276 Y151.061 E162.19945
G1 X128.721 Y151.216 E162.27612
G1 X128.649 Y151.23 E162.28588
G1 X127.962 Y151.296 E162.37769
G1 X102.038 Y151.296 E165.82664
G1 X101.36 Y151.232 E165.91724
G1 X101.287 Y151.218 E165.92713
G1 X100.715 Y151.058 E166.00615
G1 X100.28 Y150.897 E166.06786
G1 X99.793 Y150.674 E166.13912
G1 X99.344 Y150.381 E166.21045
G1 X99.062 Y150.142 E166.25963
G1 X98.89 Y149.98 E166.29106
G1 X98.528 Y149.584 E166.36244
G1 X98.205 Y149.097 E166.44019
G1 X98.162 Y149.019 E166.45204
G1 X97.861 Y148.294 E166.55647
G1 X97.717 Y147.803 E166.62455
G1 X97.607 Y147.299 E166.69318
G1 X97.599 Y147.243 E166.70071
G1 X97.563 Y146.734 E166.76859
G1 X97.564 Y83.269 E175.21201
G1 X97.597 Y82.785 E175.27655
G1 X97.605 Y82.726 E175.28447
G1 X97.715 Y82.206 E175.35518
G1 X97.857 Y81.717 E175.42293
G1 X98.044 Y81.215 E175.4942
G1 X98.383 Y80.63 E175.58415
G1 X98.515 Y80.445 E175.61439
G1 X98.859 Y80.033 E175.68579
G0 F6000 X99.473 Y80.549
G1 F1200 X99.848 Y80.237 E175.75069
G1 X99.93 Y80.18 E175.76398
G1 X100.34 Y79.944 E175.82692
G1 X100.562 Y79.851 E175.85894
G1 X101 Y79.69 E175.92102
G1 X101.432 Y79.569 E175.98071
G1 X101.504 Y79.555 E175.99047
G1 X102.038 Y79.504 E176.06183
