;FLAVOR:Marlin
;TIME:7175
;Filament used: 21.8528m
;Layer height: 0.4
;MINX:65.906
;MINY:83
;MINZ:0.4
;MAXX:167.729
;MAXY:147
;MAXZ:65.6
;Generated with Cura_SteamEngine 4.13.1
M140 S60
M105
M190 S60
M104 S215
M105
M109 S215
M82 ;absolute extrusion mode
; --- Global Settings
; layer_height = 0.4
; smooth_spiralized_contours = True
; magic_mesh_surface_mode = normal
; machine_extruder_count = 1
; --- Single Extruder Settings
; speed_z_hop = 5
; retraction_amount = 4.5
; retraction_hop = 0.4
; retraction_hop_enabled = True
; retraction_enable = True
; retraction_speed = 70
; retraction_retract_speed = 70
; retraction_prime_speed = 70
; speed_travel = 175.0

; Ender 3 Custom Start G-code
G92 E0 ; Reset Extruder
G28 ; Home all axes
G1 Z2.0 F3000 ; Move Z Axis up little to prevent scratching of Heat Bed
G1 X0.1 Y20 Z0.3 F5000.0 ; Move to start position
G1 X0.1 Y200.0 Z0.3 F1500.0 E15 ; Draw the first line
G1 X0.4 Y200.0 Z0.3 F5000.0 ; Move to side a little
G1 X0.4 Y20 Z0.3 F1500.0 E30 ; Draw the second line
G92 E0 ; Reset Extruder
G1 Z2.0 F3000 ; Move Z Axis up little to prevent scratching of Heat Bed
G1 X5 Y20 Z0.3 F5000.0 ; Move over to prevent blob squish
G92 E0
G92 E0
G1 F4200 E-4.5
;LAYER_COUNT:163
;LAYER:0
M107
G1 F300 Z0.8
G0 F6000 X71.284 Y86.253 Z0.8
;TYPE:SKIRT
G1 F300 Z0.4
G1 F4200 E0.3326
G1 F1200 X71.562 Y86.032 E0.37985
G1 X72.353 Y85.454 E0.51019
G1 X73.175 Y84.95 E0.63847
G1 X73.345 Y84.855 E0.66437
G1 X73.715 Y84.657 E0.7202
G1 X73.968 Y84.527 E0.75805
G1 X74.856 Y84.115 E0.88828
G1 X75.751 Y83.785 E1.01519
G1 X75.933 Y83.726 E1.04064
G1 X76.289 Y83.616 E1.09022
G1 X76.575 Y83.533 E1.12984
G1 X77.527 Y83.299 E1.26026
G1 X78.626 Y83.128 E1.40823
G1 X78.875 Y83.101 E1.44155
G1 X79.31 Y83.061 E1.49967
G1 X80.043 Y83.024 E1.59731
G1 X81.158 Y83.002 E1.74568
G1 X81.396 Y83 E1.77735
G1 X104.882 Y83.002 E4.90194
G1 X105.581 Y83.012 E4.99494
G1 X106.238 Y83.04 E5.08243
G1 X106.498 Y83.058 E5.1171
G1 X106.867 Y83.089 E5.16637
G1 X109.299 Y83.333 E5.49154
G1 X111.747 Y83.508 E5.81806
G1 X114.26 Y83.618 E6.15271
G1 X116.753 Y83.655 E6.48442
G1 X119.228 Y83.621 E6.81372
G1 X121.715 Y83.518 E7.14488
G1 X124.228 Y83.342 E7.48003
G1 X126.465 Y83.125 E7.77904
G1 X126.657 Y83.104 E7.80473
G1 X127.15 Y83.06 E7.87058
G1 X127.866 Y83.024 E7.96596
G1 X128.981 Y83.002 E8.11433
G1 X129.219 Y83 E8.14599
G1 X152.704 Y83.002 E11.27045
G1 X153.404 Y83.012 E11.36359
G1 X154.063 Y83.04 E11.45134
G1 X154.236 Y83.052 E11.47441
G1 X154.777 Y83.102 E11.5467
G1 X155.09 Y83.138 E11.58861
G1 X156.058 Y83.289 E11.71895
G1 X157.001 Y83.516 E11.84799
G1 X157.205 Y83.574 E11.87621
G1 X157.523 Y83.67 E11.9204
G1 X157.771 Y83.748 E11.95499
G1 X158.693 Y84.08 E12.08536
G1 X159.453 Y84.42 E12.19613
G1 X159.606 Y84.495 E12.2188
G1 X160.109 Y84.756 E12.29419
G1 X160.378 Y84.904 E12.33504
G1 X161.216 Y85.411 E12.46534
G1 X162.098 Y86.054 E12.61056
G1 X162.365 Y86.268 E12.65608
G1 X163.143 Y86.949 E12.79364
G1 X163.36 Y87.156 E12.83354
G1 X164.04 Y87.861 E12.96385
G1 X164.46 Y88.359 E13.05052
G1 X164.684 Y88.64 E13.09833
G1 X165.263 Y89.43 E13.22864
G1 X165.803 Y90.313 E13.36634
G1 X165.897 Y90.483 E13.39218
G1 X166.044 Y90.759 E13.43378
G1 X166.178 Y91.017 E13.47246
G1 X166.594 Y91.904 E13.6028
G1 X166.913 Y92.753 E13.72346
G1 X166.973 Y92.933 E13.74871
G1 X167.126 Y93.426 E13.81738
G1 X167.207 Y93.709 E13.85654
G1 X167.438 Y94.661 E13.98687
G1 X167.587 Y95.606 E14.11415
G1 X167.645 Y96.119 E14.18284
G1 X167.649 Y96.161 E14.18845
G1 X167.7 Y97.052 E14.30718
G1 X167.726 Y98.313 E14.47498
G1 X167.729 Y98.56 E14.50784
G1 X167.727 Y131.938 E18.94847
G1 X167.717 Y132.664 E19.04507
G1 X167.69 Y133.32 E19.13242
G1 X167.678 Y133.495 E19.15575
G1 X167.631 Y134.016 E19.22535
G1 X167.595 Y134.336 E19.26819
G1 X167.446 Y135.304 E19.39849
G1 X167.191 Y136.352 E19.54199
G1 X167.133 Y136.551 E19.56956
G1 X167.039 Y136.857 E19.61215
G1 X166.955 Y137.119 E19.64875
G1 X166.618 Y138.038 E19.77898
G1 X166.261 Y138.822 E19.89359
G1 X166.202 Y138.94 E19.91114
G1 X165.983 Y139.357 E19.9738
G1 X165.813 Y139.666 E20.02072
G1 X165.306 Y140.505 E20.15114
G1 X164.657 Y141.394 E20.29758
G1 X164.486 Y141.607 E20.33392
G1 X164.232 Y141.913 E20.38683
G1 X164.08 Y142.09 E20.41787
G1 X163.412 Y142.806 E20.54814
G1 X162.991 Y143.203 E20.62513
G1 X162.913 Y143.273 E20.63907
G1 X162.39 Y143.716 E20.73026
G1 X162.101 Y143.947 E20.77948
G1 X161.312 Y144.526 E20.90968
G1 X160.399 Y145.083 E21.05197
G1 X160.183 Y145.202 E21.08478
G1 X159.86 Y145.375 E21.13352
G1 X159.647 Y145.484 E21.16536
G1 X158.757 Y145.894 E21.29572
G1 X157.891 Y146.213 E21.4185
G1 X157.728 Y146.266 E21.44131
G1 X157.349 Y146.382 E21.49404
G1 X157.048 Y146.469 E21.53572
G1 X156.097 Y146.702 E21.66599
G1 X155.056 Y146.866 E21.80619
G1 X154.789 Y146.896 E21.84193
G1 X154.254 Y146.944 E21.9134
G1 X153.608 Y146.975 E21.99944
G1 X152.456 Y146.998 E22.15273
G1 X152.215 Y147 E22.1848
G1 X128.753 Y146.998 E25.30619
G1 X128.054 Y146.988 E25.3992
G1 X127.397 Y146.96 E25.48669
G1 X127.137 Y146.942 E25.52136
G1 X126.768 Y146.911 E25.57062
G1 X124.336 Y146.667 E25.8958
G1 X121.888 Y146.492 E26.22232
G1 X119.375 Y146.382 E26.55697
G1 X116.882 Y146.345 E26.88867
G1 X114.407 Y146.379 E27.21798
G1 X111.92 Y146.482 E27.54914
G1 X109.407 Y146.658 E27.88429
G1 X107.17 Y146.875 E28.1833
G1 X106.978 Y146.896 E28.20899
G1 X106.485 Y146.94 E28.27484
G1 X105.769 Y146.976 E28.37022
G1 X104.654 Y146.998 E28.51859
G1 X104.416 Y147 E28.55025
G1 X80.931 Y146.998 E31.67471
G1 X80.231 Y146.988 E31.76785
G1 X79.547 Y146.959 E31.85893
G1 X79.379 Y146.947 E31.88134
G1 X78.877 Y146.9 E31.94841
G1 X78.552 Y146.863 E31.99193
G1 X77.584 Y146.713 E32.12225
G1 X76.628 Y146.483 E32.25307
G1 X76.431 Y146.427 E32.28032
G1 X76.085 Y146.323 E32.32838
G1 X75.839 Y146.245 E32.36272
G1 X74.918 Y145.911 E32.49305
G1 X74.077 Y145.528 E32.616
G1 X73.888 Y145.433 E32.64414
G1 X73.467 Y145.211 E32.70746
G1 X73.214 Y145.071 E32.74593
G1 X72.377 Y144.562 E32.87626
G1 X71.522 Y143.937 E33.01716
G1 X71.306 Y143.764 E33.05398
G1 X70.994 Y143.505 E33.10792
G1 X70.818 Y143.354 E33.13878
G1 X70.101 Y142.687 E33.26906
G1 X69.57 Y142.114 E33.37299
G1 X69.491 Y142.023 E33.38902
G1 X69.176 Y141.644 E33.45459
G1 X68.954 Y141.366 E33.50192
G1 X68.374 Y140.576 E33.63231
G1 X67.832 Y139.69 E33.77049
G1 X67.739 Y139.522 E33.79603
G1 X67.581 Y139.226 E33.84067
G1 X67.449 Y138.971 E33.87887
G1 X67.035 Y138.084 E34.0091
G1 X66.685 Y137.139 E34.14317
G1 X66.625 Y136.953 E34.16917
G1 X66.517 Y136.598 E34.21854
G1 X66.435 Y136.314 E34.25787
G1 X66.202 Y135.362 E34.38826
G1 X66.053 Y134.446 E34.51172
G1 X66.027 Y134.234 E34.54014
G1 X65.971 Y133.669 E34.61568
G1 X65.935 Y132.947 E34.71185
G1 X65.909 Y131.688 E34.87939
G1 X65.906 Y131.44 E34.91238
G1 X65.908 Y98.026 E39.3578
G1 X65.918 Y97.321 E39.4516
G1 X65.949 Y96.621 E39.54482
G1 X65.961 Y96.456 E39.56683
G1 X66.007 Y95.96 E39.6331
G1 X66.044 Y95.637 E39.67636
G1 X66.195 Y94.669 E39.8067
G1 X66.423 Y93.722 E39.93629
G1 X66.479 Y93.525 E39.96353
G1 X66.583 Y93.179 E40.0116
G1 X66.661 Y92.933 E40.04593
G1 X66.995 Y92.012 E40.17627
G1 X67.379 Y91.17 E40.29939
G1 X67.47 Y90.989 E40.32634
G1 X67.712 Y90.531 E40.39526
G1 X67.861 Y90.264 E40.43594
G1 X68.373 Y89.429 E40.56625
G1 X68.978 Y88.605 E40.70225
G1 X69.144 Y88.398 E40.73755
G1 X69.388 Y88.104 E40.78838
G1 X69.542 Y87.924 E40.8199
G1 X70.208 Y87.206 E40.95019
G1 X70.793 Y86.663 E41.05637
G1 X70.884 Y86.584 E41.07241
G1 X71.284 Y86.253 E41.14148
G0 F6000 X71.781 Y86.879
G1 F1200 X72.059 Y86.658 E41.18873
G1 X72.824 Y86.101 E41.31462
G1 X73.565 Y85.648 E41.43017
G1 X73.735 Y85.553 E41.45608
G1 X74.08 Y85.368 E41.50816
G1 X74.333 Y85.238 E41.546
G1 X75.193 Y84.842 E41.67196
G1 X75.998 Y84.546 E41.78607
G1 X76.18 Y84.487 E41.81153
G1 X76.512 Y84.385 E41.85773
G1 X76.798 Y84.302 E41.89735
G1 X77.718 Y84.077 E42.02336
G1 X78.713 Y83.923 E42.15731
G1 X78.962 Y83.896 E42.19063
G1 X79.375 Y83.859 E42.2458
G1 X80.059 Y83.824 E42.33691
G1 X81.174 Y83.802 E42.48528
G1 X81.395 Y83.8 E42.51469
G1 X104.87 Y83.802 E45.63781
G1 X105.569 Y83.812 E45.73082
G1 X106.183 Y83.838 E45.81258
G1 X106.443 Y83.856 E45.84725
G1 X106.787 Y83.885 E45.89318
G1 X109.231 Y84.13 E46.21996
G1 X111.727 Y84.309 E46.55288
G1 X114.213 Y84.417 E46.88393
G1 X116.751 Y84.455 E47.22163
G1 X119.272 Y84.421 E47.55705
G1 X121.735 Y84.319 E47.88501
G1 X124.285 Y84.14 E48.2251
G1 X126.628 Y83.913 E48.53828
G1 X127.075 Y83.868 E48.59805
G1 X127.213 Y83.857 E48.61646
G1 X127.882 Y83.824 E48.70558
G1 X128.997 Y83.802 E48.85394
G1 X129.218 Y83.8 E48.88335
G1 X152.693 Y83.802 E52.00647
G1 X153.393 Y83.812 E52.09961
G1 X154.008 Y83.838 E52.18151
G1 X154.181 Y83.85 E52.20458
G1 X154.686 Y83.896 E52.27204
G1 X154.999 Y83.932 E52.31396
G1 X155.933 Y84.08 E52.43977
G1 X156.782 Y84.286 E52.556
G1 X156.986 Y84.344 E52.58421
G1 X157.283 Y84.433 E52.62546
G1 X157.531 Y84.511 E52.66005
G1 X158.421 Y84.833 E52.78597
G1 X159.101 Y85.138 E52.88512
G1 X159.254 Y85.213 E52.90779
G1 X159.723 Y85.457 E52.97812
G1 X159.992 Y85.605 E53.01897
G1 X160.801 Y86.096 E53.14487
G1 X161.598 Y86.679 E53.27624
G1 X161.865 Y86.893 E53.32177
G1 X162.591 Y87.528 E53.45009
G1 X162.808 Y87.735 E53.48999
G1 X163.464 Y88.416 E53.61578
G1 X163.835 Y88.858 E53.69256
G1 X164.059 Y89.139 E53.74037
G1 X164.617 Y89.903 E53.86623
G1 X165.102 Y90.7 E53.99036
G1 X165.196 Y90.87 E54.0162
G1 X165.334 Y91.128 E54.05513
G1 X165.468 Y91.386 E54.0938
G1 X165.869 Y92.243 E54.21968
G1 X166.154 Y93.006 E54.32804
G1 X166.214 Y93.186 E54.35329
G1 X166.357 Y93.646 E54.41737
G1 X166.438 Y93.929 E54.45654
G1 X166.659 Y94.849 E54.58242
G1 X166.793 Y95.7 E54.69703
G1 X166.849 Y96.195 E54.7633
G1 X166.853 Y96.237 E54.76892
G1 X166.901 Y97.068 E54.87966
G1 X166.927 Y98.329 E55.04746
G1 X166.929 Y98.56 E55.07819
G1 X166.927 Y131.927 E59.51735
G1 X166.917 Y132.653 E59.61395
G1 X166.892 Y133.265 E59.69544
G1 X166.88 Y133.44 E59.71878
G1 X166.836 Y133.926 E59.7837
G1 X166.8 Y134.246 E59.82654
G1 X166.654 Y135.181 E59.95244
G1 X166.423 Y136.128 E60.08212
G1 X166.365 Y136.327 E60.1097
G1 X166.277 Y136.612 E60.14938
G1 X166.193 Y136.874 E60.18599
G1 X165.867 Y137.763 E60.31196
G1 X165.546 Y138.464 E60.41454
G1 X165.487 Y138.582 E60.43209
G1 X165.282 Y138.972 E60.49071
G1 X165.112 Y139.281 E60.53763
G1 X164.621 Y140.09 E60.66353
G1 X164.033 Y140.894 E60.79605
G1 X163.862 Y141.107 E60.83239
G1 X163.625 Y141.392 E60.8817
G1 X163.473 Y141.569 E60.91274
G1 X162.827 Y142.26 E61.03859
G1 X162.457 Y142.608 E61.10616
G1 X162.379 Y142.678 E61.12011
G1 X161.891 Y143.091 E61.20516
G1 X161.602 Y143.322 E61.25438
G1 X160.838 Y143.881 E61.38033
G1 X160.013 Y144.383 E61.50881
G1 X159.797 Y144.502 E61.54162
G1 X159.495 Y144.662 E61.58709
G1 X159.282 Y144.771 E61.61892
G1 X158.422 Y145.166 E61.74482
G1 X157.643 Y145.452 E61.85523
G1 X157.48 Y145.505 E61.87803
G1 X157.127 Y145.614 E61.92718
G1 X156.826 Y145.701 E61.96887
G1 X155.906 Y145.925 E62.09484
G1 X154.967 Y146.071 E62.22126
G1 X154.7 Y146.101 E62.25701
G1 X154.195 Y146.146 E62.32446
G1 X153.592 Y146.175 E62.40478
G1 X152.44 Y146.198 E62.55807
G1 X152.216 Y146.2 E62.58787
G1 X128.765 Y146.198 E65.70781
G1 X128.066 Y146.188 E65.80081
G1 X127.452 Y146.162 E65.88257
G1 X127.192 Y146.144 E65.91725
G1 X126.848 Y146.115 E65.96317
G1 X124.404 Y145.87 E66.28995
G1 X121.908 Y145.691 E66.62288
G1 X119.422 Y145.583 E66.95393
G1 X116.884 Y145.545 E67.29162
G1 X114.363 Y145.579 E67.62705
G1 X111.9 Y145.681 E67.95501
G1 X109.35 Y145.86 E68.2951
G1 X107.007 Y146.087 E68.60827
G1 X106.56 Y146.132 E68.66804
G1 X106.422 Y146.143 E68.68646
G1 X105.753 Y146.176 E68.77557
G1 X104.638 Y146.198 E68.92394
G1 X104.417 Y146.2 E68.95334
G1 X80.942 Y146.198 E72.07647
G1 X80.242 Y146.188 E72.16961
G1 X79.604 Y146.161 E72.25456
G1 X79.436 Y146.149 E72.27697
G1 X78.967 Y146.105 E72.33964
G1 X78.642 Y146.068 E72.38316
G1 X77.707 Y145.921 E72.50908
G1 X76.847 Y145.713 E72.62679
G1 X76.65 Y145.657 E72.65404
G1 X76.327 Y145.56 E72.69891
G1 X76.081 Y145.482 E72.73324
G1 X75.192 Y145.158 E72.85912
G1 X74.436 Y144.813 E72.96968
G1 X74.247 Y144.718 E72.99782
G1 X73.854 Y144.511 E73.05692
G1 X73.601 Y144.371 E73.09539
G1 X72.793 Y143.878 E73.22131
G1 X72.022 Y143.313 E73.34848
G1 X71.806 Y143.14 E73.3853
G1 X71.515 Y142.898 E73.43565
G1 X71.339 Y142.747 E73.4665
G1 X70.648 Y142.101 E73.59235
G1 X70.174 Y141.589 E73.68518
G1 X70.095 Y141.498 E73.70121
G1 X69.801 Y141.145 E73.76233
G1 X69.579 Y140.867 E73.80966
G1 X69.02 Y140.103 E73.9356
G1 X68.532 Y139.302 E74.06039
G1 X68.439 Y139.134 E74.08594
G1 X68.292 Y138.859 E74.12742
G1 X68.16 Y138.604 E74.16562
G1 X67.76 Y137.746 E74.29157
G1 X67.447 Y136.893 E74.41245
G1 X67.387 Y136.707 E74.43845
G1 X67.286 Y136.376 E74.48449
G1 X67.204 Y136.092 E74.52382
G1 X66.98 Y135.172 E74.64979
G1 X66.847 Y134.348 E74.76083
G1 X66.821 Y134.136 E74.78925
G1 X66.769 Y133.604 E74.86037
G1 X66.734 Y132.93 E74.95016
G1 X66.708 Y131.671 E75.11769
G1 X66.706 Y131.44 E75.14842
G1 X66.708 Y98.037 E79.59238
G1 X66.718 Y97.332 E79.68618
G1 X66.747 Y96.679 E79.77314
G1 X66.759 Y96.514 E79.79515
G1 X66.802 Y96.051 E79.85701
G1 X66.839 Y95.728 E79.90027
G1 X66.986 Y94.794 E80.02605
G1 X67.193 Y93.941 E80.14283
G1 X67.249 Y93.744 E80.17008
G1 X67.346 Y93.421 E80.21495
G1 X67.424 Y93.175 E80.24928
G1 X67.748 Y92.286 E80.37516
G1 X68.093 Y91.529 E80.48584
G1 X68.184 Y91.348 E80.51279
G1 X68.411 Y90.921 E80.57713
G1 X68.56 Y90.654 E80.61781
G1 X69.055 Y89.848 E80.74365
G1 X69.603 Y89.105 E80.86648
G1 X69.769 Y88.898 E80.90178
G1 X69.996 Y88.624 E80.94911
G1 X70.15 Y88.444 E80.98063
G1 X70.795 Y87.751 E81.10658
G1 X71.318 Y87.267 E81.20139
G1 X71.409 Y87.188 E81.21742
G1 X71.781 Y86.879 E81.28176
G0 F6000 X72.279 Y87.505
G1 F1200 X72.557 Y87.284 E81.329
G1 X73.295 Y86.748 E81.45035
G1 X73.956 Y86.346 E81.55328
G1 X74.126 Y86.251 E81.57919
G1 X74.446 Y86.08 E81.62746
G1 X74.699 Y85.95 E81.6653
G1 X75.527 Y85.569 E81.78656
G1 X76.245 Y85.307 E81.88824
G1 X76.427 Y85.248 E81.9137
G1 X76.735 Y85.153 E81.95658
G1 X77.021 Y85.07 E81.9962
G1 X77.908 Y84.855 E82.11762
G1 X78.799 Y84.719 E82.23753
G1 X79.048 Y84.692 E82.27086
G1 X79.44 Y84.656 E82.32323
G1 X80.075 Y84.624 E82.40781
G1 X81.19 Y84.602 E82.55618
G1 X81.395 Y84.6 E82.58346
G1 X104.859 Y84.602 E85.70512
G1 X105.558 Y84.612 E85.79813
G1 X106.127 Y84.636 E85.87389
G1 X106.387 Y84.654 E85.90857
G1 X106.707 Y84.681 E85.95129
G1 X109.164 Y84.927 E86.27981
G1 X111.672 Y85.107 E86.61433
G1 X114.201 Y85.217 E86.95111
G1 X116.75 Y85.255 E87.29027
G1 X119.28 Y85.221 E87.62689
G1 X121.824 Y85.116 E87.96563
G1 X124.342 Y84.939 E88.30145
G1 X126.634 Y84.717 E88.60781
G1 X126.831 Y84.695 E88.63418
G1 X127.277 Y84.655 E88.69376
G1 X127.898 Y84.624 E88.77648
G1 X129.013 Y84.602 E88.92485
G1 X129.218 Y84.6 E88.95212
G1 X152.682 Y84.602 E92.07378
G1 X153.382 Y84.612 E92.16692
G1 X153.953 Y84.636 E92.24296
G1 X154.126 Y84.648 E92.26603
G1 X154.594 Y84.691 E92.32855
G1 X154.907 Y84.727 E92.37047
G1 X155.808 Y84.871 E92.49186
G1 X156.563 Y85.055 E92.59524
G1 X156.767 Y85.113 E92.62346
G1 X157.043 Y85.196 E92.6618
G1 X157.291 Y85.274 E92.69639
G1 X158.148 Y85.586 E92.81773
G1 X158.749 Y85.857 E92.90544
G1 X158.902 Y85.932 E92.92811
G1 X159.337 Y86.158 E92.99332
G1 X159.606 Y86.306 E93.03417
G1 X160.385 Y86.78 E93.15549
G1 X161.097 Y87.303 E93.27302
G1 X161.364 Y87.517 E93.31855
G1 X162.038 Y88.107 E93.43772
G1 X162.255 Y88.314 E93.47762
G1 X162.887 Y88.972 E93.599
G1 X163.209 Y89.356 E93.66567
G1 X163.433 Y89.637 E93.71348
G1 X163.97 Y90.375 E93.8349
G1 X164.402 Y91.088 E93.94581
G1 X164.624 Y91.496 E94.00761
G1 X164.758 Y91.754 E94.04629
G1 X165.143 Y92.581 E94.16765
G1 X165.395 Y93.259 E94.26388
G1 X165.455 Y93.439 E94.28912
G1 X165.588 Y93.866 E94.34862
G1 X165.669 Y94.149 E94.38778
G1 X165.881 Y95.036 E94.50912
G1 X165.998 Y95.793 E94.61102
G1 X166.052 Y96.271 E94.67502
G1 X166.056 Y96.313 E94.68063
G1 X166.101 Y97.085 E94.78352
G1 X166.127 Y98.346 E94.95132
G1 X166.129 Y98.56 E94.97979
G1 X166.127 Y131.916 E99.41749
G1 X166.117 Y132.642 E99.51408
G1 X166.094 Y133.21 E99.58971
G1 X166.082 Y133.385 E99.61305
G1 X166.041 Y133.837 E99.67343
