;FLAVOR:Marlin
;TIME:1366
;Filament used: 4.1704m
;Layer height: 0.4
;MINX:81.9
;MINY:85.4
;MINZ:0.4
;MAXX:148.1
;MAXY:144.589
;MAXZ:8.4
;Generated with Cura_SteamEngine 4.13.1
M140 S60
M105
M190 S60
M104 S215
M105
M109 S215
M82 ;absolute extrusion mode
; --- Global Settings
; layer_height = 0.4
; smooth_spiralized_contours = True
; magic_mesh_surface_mode = normal
; machine_extruder_count = 1
; --- Single Extruder Settings
; speed_z_hop = 5
; retraction_amount = 4.5
; retraction_hop = 0.4
; retraction_hop_enabled = True
; retraction_enable = True
; retraction_speed = 70
; retraction_retract_speed = 70
; retraction_prime_speed = 70
; speed_travel = 175.0

; Ender 3 Custom Start G-code
G92 E0 ; Reset Extruder
G28 ; Home all axes
G1 Z2.0 F3000 ; Move Z Axis up little to prevent scratching of Heat Bed
G1 X0.1 Y20 Z0.3 F5000.0 ; Move to start position
G1 X0.1 Y200.0 Z0.3 F1500.0 E15 ; Draw the first line
G1 X0.4 Y200.0 Z0.3 F5000.0 ; Move to side a little
G1 X0.4 Y20 Z0.3 F1500.0 E30 ; Draw the second line
G92 E0 ; Reset Extruder
G1 Z2.0 F3000 ; Move Z Axis up little to prevent scratching of Heat Bed
G1 X5 Y20 Z0.3 F5000.0 ; Move over to prevent blob squish
G92 E0
G92 E0
G1 F4200 E-4.5
;LAYER_COUNT:20
;LAYER:0
M107
G1 F300 Z0.8
G0 F6000 X84.36 Y87.626 Z0.8
;TYPE:SKIRT
G1 F300 Z0.4
G1 F4200 E0.3326
G1 F1200 X84.939 Y87.104 E0.43632
G1 X85.568 Y86.644 E0.53999
G1 X86.241 Y86.25 E0.64374
G1 X86.951 Y85.928 E0.74746
G1 X87.69 Y85.68 E0.85116
G1 X88.45 Y85.509 E0.9548
G1 X89.224 Y85.417 E1.0585
G1 X89.734 Y85.4 E1.12639
G1 X140.266 Y85.4 E7.84919
G1 X141.044 Y85.44 E7.95284
G1 X141.815 Y85.559 E8.05663
G1 X142.569 Y85.757 E8.16034
G1 X143.298 Y86.031 E8.26395
G1 X143.996 Y86.378 E8.36765
G1 X144.655 Y86.795 E8.47141
G1 X145.267 Y87.278 E8.57513
G1 X145.64 Y87.626 E8.643
G1 X145.874 Y87.86 E8.68702
G1 X146.396 Y88.439 E8.79074
G1 X146.856 Y89.068 E8.89441
G1 X147.25 Y89.741 E8.99816
G1 X147.572 Y90.451 E9.10188
G1 X147.82 Y91.19 E9.20559
G1 X147.991 Y91.95 E9.30923
G1 X148.083 Y92.724 E9.41292
G1 X148.1 Y93.234 E9.48081
G1 X148.099 Y130.535 E14.44336
G1 X148.087 Y130.97 E14.50125
G1 X148.048 Y131.651 E14.592
G1 X147.956 Y132.467 E14.70125
G1 X147.836 Y133.186 E14.79823
G1 X147.644 Y134.036 E14.91416
G1 X147.438 Y134.752 E15.01328
G1 X147.145 Y135.584 E15.13064
G1 X146.861 Y136.263 E15.22855
G1 X146.493 Y137.023 E15.3409
G1 X146.13 Y137.676 E15.44029
G1 X145.672 Y138.399 E15.55416
G1 X145.255 Y138.983 E15.64962
G1 X144.717 Y139.653 E15.76394
G1 X144.228 Y140.196 E15.86116
G1 X143.645 Y140.777 E15.97066
G1 X143.128 Y141.239 E16.06291
G1 X142.457 Y141.774 E16.17708
G1 X141.84 Y142.211 E16.27767
G1 X141.125 Y142.66 E16.38999
G1 X140.512 Y142.999 E16.48319
G1 X139.766 Y143.36 E16.59344
G1 X139.082 Y143.646 E16.69208
G1 X138.254 Y143.937 E16.80884
G1 X137.539 Y144.143 E16.90783
G1 X136.686 Y144.336 E17.02419
G1 X135.967 Y144.456 E17.12117
G1 X135.134 Y144.549 E17.23268
G1 X134.407 Y144.589 E17.32954
G1 X133.558 Y144.588 E17.4425
G1 X132.853 Y144.548 E17.53644
G1 X132.033 Y144.456 E17.64622
G1 X131.314 Y144.336 E17.7432
G1 X130.466 Y144.144 E17.85887
G1 X129.77 Y143.944 E17.95521
G1 X129.543 Y143.875 E17.98678
G1 X128.916 Y143.645 E18.07563
G1 X128.239 Y143.362 E18.17325
G1 X127.477 Y142.993 E18.28589
G1 X126.824 Y142.63 E18.38529
G1 X126.099 Y142.171 E18.49945
G1 X125.514 Y141.753 E18.5951
G1 X124.846 Y141.216 E18.70913
G1 X124.302 Y140.726 E18.80653
G1 X123.72 Y140.142 E18.91622
G1 X123.259 Y139.626 E19.00828
G1 X122.725 Y138.956 E19.12226
G1 X122.288 Y138.339 E19.22285
G1 X121.837 Y137.62 E19.33577
G1 X121.499 Y137.008 E19.42878
G1 X121.14 Y136.266 E19.53845
G1 X120.854 Y135.582 E19.63708
G1 X120.563 Y134.754 E19.75384
G1 X120.357 Y134.039 E19.85284
G1 X120.163 Y133.184 E19.96948
G1 X120.043 Y132.464 E20.06659
G1 X119.952 Y131.635 E20.17754
G1 X119.906 Y130.798 E20.28906
G1 X119.876 Y130.099 E20.38214
G1 X119.825 Y129.683 E20.4379
G1 X119.743 Y129.293 E20.49092
G1 X119.634 Y128.926 E20.54186
G1 X119.478 Y128.527 E20.59885
G1 X119.305 Y128.173 E20.65127
G1 X119.091 Y127.814 E20.70688
G1 X118.865 Y127.496 E20.75878
G1 X118.602 Y127.186 E20.81287
G1 X118.313 Y126.897 E20.86724
G1 X117.998 Y126.63 E20.92218
G1 X117.689 Y126.41 E20.97264
G1 X117.33 Y126.197 E21.02818
G1 X116.974 Y126.022 E21.08095
G1 X116.576 Y125.867 E21.13778
G1 X116.201 Y125.755 E21.18984
G1 X115.814 Y125.674 E21.24245
G1 X115.41 Y125.624 E21.29661
G1 X115 Y125.607 E21.3512
G1 X114.59 Y125.624 E21.40579
G1 X114.186 Y125.674 E21.45995
G1 X113.799 Y125.755 E21.51255
G1 X113.424 Y125.867 E21.56462
G1 X113.026 Y126.022 E21.62144
G1 X112.67 Y126.197 E21.67422
G1 X112.315 Y126.408 E21.72916
G1 X111.999 Y126.634 E21.78085
G1 X111.686 Y126.898 E21.83532
G1 X111.397 Y127.187 E21.8897
G1 X111.13 Y127.502 E21.94464
G1 X110.91 Y127.811 E21.9951
G1 X110.697 Y128.17 E22.05064
G1 X110.519 Y128.532 E22.1043
G1 X110.366 Y128.925 E22.16041
G1 X110.256 Y129.295 E22.21177
G1 X110.175 Y129.68 E22.26411
G1 X110.123 Y130.104 E22.32094
G1 X110.087 Y130.948 E22.43333
G1 X110.048 Y131.642 E22.5258
G1 X109.956 Y132.467 E22.63624
G1 X109.836 Y133.186 E22.73322
G1 X109.644 Y134.036 E22.84916
G1 X109.438 Y134.752 E22.94828
G1 X109.145 Y135.584 E23.06563
G1 X108.861 Y136.263 E23.16355
G1 X108.493 Y137.023 E23.27589
G1 X108.13 Y137.676 E23.37528
G1 X107.672 Y138.399 E23.48915
G1 X107.255 Y138.983 E23.58462
G1 X106.717 Y139.653 E23.69894
G1 X106.228 Y140.196 E23.79615
G1 X105.645 Y140.777 E23.90565
G1 X105.128 Y141.239 E23.9979
G1 X104.457 Y141.774 E24.11207
G1 X103.84 Y142.211 E24.21266
G1 X103.125 Y142.66 E24.32498
G1 X102.512 Y142.999 E24.41818
G1 X101.766 Y143.36 E24.52844
G1 X101.082 Y143.646 E24.62707
G1 X100.254 Y143.937 E24.74383
G1 X99.539 Y144.143 E24.84283
G1 X98.686 Y144.336 E24.95918
G1 X97.967 Y144.456 E25.05616
G1 X97.134 Y144.549 E25.16767
G1 X96.407 Y144.589 E25.26454
G1 X95.558 Y144.588 E25.37749
G1 X94.853 Y144.548 E25.47143
G1 X94.033 Y144.456 E25.58121
G1 X93.314 Y144.336 E25.67819
G1 X92.466 Y144.144 E25.79386
G1 X91.77 Y143.944 E25.89021
G1 X91.543 Y143.875 E25.92177
G1 X90.916 Y143.645 E26.01062
G1 X90.239 Y143.362 E26.10824
G1 X89.477 Y142.993 E26.22088
G1 X88.824 Y142.63 E26.32028
G1 X88.099 Y142.171 E26.43444
G1 X87.514 Y141.753 E26.53009
G1 X86.846 Y141.216 E26.64412
G1 X86.302 Y140.726 E26.74152
G1 X85.72 Y140.142 E26.85121
G1 X85.259 Y139.626 E26.94327
G1 X84.725 Y138.956 E27.05726
G1 X84.288 Y138.339 E27.15785
G1 X83.837 Y137.62 E27.27076
G1 X83.499 Y137.008 E27.36378
G1 X83.14 Y136.266 E27.47344
G1 X82.854 Y135.582 E27.57207
G1 X82.563 Y134.754 E27.68884
G1 X82.357 Y134.039 E27.78783
G1 X82.164 Y133.186 E27.90418
G1 X82.044 Y132.467 E28.00116
G1 X81.952 Y131.651 E28.11041
G1 X81.912 Y130.953 E28.20342
G1 X81.9 Y130.518 E28.26132
G1 X81.9 Y93.234 E33.2216
G1 X81.94 Y92.456 E33.32524
G1 X82.059 Y91.685 E33.42903
G1 X82.257 Y90.931 E33.53275
G1 X82.531 Y90.202 E33.63636
G1 X82.878 Y89.504 E33.74006
G1 X83.295 Y88.845 E33.84381
G1 X83.778 Y88.233 E33.94754
G1 X84.126 Y87.86 E34.01541
G1 X84.36 Y87.626 E34.05943
G0 F6000 X84.926 Y88.192
G1 F1200 X85.475 Y87.699 E34.1576
G1 X86.073 Y87.269 E34.25559
G1 X86.715 Y86.907 E34.35364
G1 X87.393 Y86.616 E34.4518
G1 X88.098 Y86.4 E34.5499
G1 X88.822 Y86.261 E34.64798
G1 X89.734 Y86.2 E34.76958
G1 X140.266 Y86.2 E41.49239
G1 X141.002 Y86.24 E41.59045
G1 X141.73 Y86.359 E41.68859
G1 X142.44 Y86.557 E41.78665
G1 X143.125 Y86.83 E41.88476
G1 X143.776 Y87.176 E41.98284
G1 X144.386 Y87.59 E42.08092
G1 X145.074 Y88.192 E42.20254
G1 X145.308 Y88.426 E42.24657
G1 X145.801 Y88.975 E42.34474
G1 X146.231 Y89.573 E42.44273
G1 X146.593 Y90.215 E42.54078
G1 X146.884 Y90.893 E42.63894
G1 X147.1 Y91.598 E42.73704
G1 X147.239 Y92.322 E42.83512
G1 X147.3 Y93.234 E42.95672
G1 X147.299 Y130.535 E47.91927
G1 X147.288 Y130.924 E47.97104
G1 X147.249 Y131.605 E48.06179
G1 X147.167 Y132.335 E48.15952
G1 X147.047 Y133.054 E48.2565
G1 X146.875 Y133.815 E48.3603
G1 X146.669 Y134.531 E48.45942
G1 X146.407 Y135.275 E48.56436
G1 X146.123 Y135.954 E48.66228
G1 X145.793 Y136.634 E48.76283
G1 X145.43 Y137.287 E48.86223
G1 X145.021 Y137.935 E48.96418
G1 X144.604 Y138.519 E49.05965
G1 X144.123 Y139.118 E49.16185
G1 X143.634 Y139.661 E49.25907
G1 X143.112 Y140.18 E49.357
G1 X142.595 Y140.642 E49.44924
G1 X141.994 Y141.121 E49.55149
G1 X141.377 Y141.558 E49.65208
G1 X140.738 Y141.96 E49.75252
G1 X140.125 Y142.299 E49.84571
G1 X139.457 Y142.622 E49.94442
G1 X138.773 Y142.908 E50.04306
G1 X138.033 Y143.168 E50.14741
G1 X137.318 Y143.374 E50.2464
G1 X136.554 Y143.547 E50.35062
G1 X135.835 Y143.667 E50.4476
G1 X135.09 Y143.75 E50.54733
G1 X134.363 Y143.79 E50.64419
G1 X133.604 Y143.789 E50.74517
G1 X132.899 Y143.749 E50.83911
G1 X132.165 Y143.667 E50.93737
G1 X131.446 Y143.547 E51.03435
G1 X130.687 Y143.376 E51.13786
G1 X129.991 Y143.176 E51.23421
G1 X129.785 Y143.113 E51.26286
G1 X129.224 Y142.907 E51.34237
G1 X128.547 Y142.624 E51.43999
G1 X127.866 Y142.293 E51.54073
G1 X127.213 Y141.93 E51.64013
G1 X126.564 Y141.52 E51.74226
G1 X125.979 Y141.102 E51.83791
G1 X125.381 Y140.622 E51.93993
G1 X124.837 Y140.132 E52.03733
G1 X124.317 Y139.609 E52.13545
G1 X123.856 Y139.093 E52.22751
G1 X123.378 Y138.493 E52.32957
G1 X122.941 Y137.876 E52.43016
G1 X122.537 Y137.233 E52.53119
G1 X122.199 Y136.621 E52.6242
G1 X121.878 Y135.957 E52.72232
G1 X121.592 Y135.273 E52.82095
G1 X121.332 Y134.533 E52.9253
G1 X121.126 Y133.818 E53.0243
G1 X120.953 Y133.053 E53.12864
G1 X120.833 Y132.333 E53.22575
G1 X120.75 Y131.591 E53.32509
G1 X120.705 Y130.764 E53.43527
G1 X120.674 Y130.029 E53.53314
G1 X120.614 Y129.549 E53.5975
G1 X120.519 Y129.097 E53.65895
G1 X120.393 Y128.67 E53.71818
G1 X120.209 Y128.201 E53.78521
G1 X120.011 Y127.795 E53.8453
G1 X119.761 Y127.375 E53.91033
G1 X119.494 Y127.001 E53.97146
G1 X119.192 Y126.644 E54.03367
G1 X118.855 Y126.307 E54.09708
G1 X118.493 Y126.001 E54.16014
G1 X118.128 Y125.741 E54.21976
G1 X117.709 Y125.491 E54.28467
G1 X117.295 Y125.289 E54.34596
G1 X116.836 Y125.109 E54.41155
G1 X116.399 Y124.979 E54.47221
G1 X115.943 Y124.884 E54.53418
G1 X115.481 Y124.827 E54.59611
G1 X115 Y124.807 E54.66016
G1 X114.519 Y124.827 E54.7242
G1 X114.057 Y124.884 E54.78613
G1 X113.601 Y124.979 E54.8481
G1 X113.164 Y125.109 E54.90876
G1 X112.705 Y125.289 E54.97435
G1 X112.291 Y125.491 E55.03564
G1 X111.876 Y125.738 E55.09989
G1 X111.503 Y126.004 E55.16084
G1 X111.144 Y126.308 E55.22343
G1 X110.807 Y126.645 E55.28683
G1 X110.501 Y127.007 E55.34989
G1 X110.241 Y127.372 E55.40951
G1 X109.991 Y127.792 E55.47454
G1 X109.787 Y128.208 E55.53618
G1 X109.612 Y128.658 E55.60042
G1 X109.478 Y129.108 E55.66288
G1 X109.385 Y129.55 E55.72298
G1 X109.325 Y130.032 E55.7876
G1 X109.288 Y130.904 E55.90371
G1 X109.249 Y131.598 E55.99619
G1 X109.167 Y132.335 E56.09484
G1 X109.047 Y133.054 E56.19182
G1 X108.875 Y133.815 E56.29562
G1 X108.669 Y134.531 E56.39474
G1 X108.407 Y135.275 E56.49968
G1 X108.123 Y135.954 E56.5976
G1 X107.793 Y136.634 E56.69816
G1 X107.43 Y137.287 E56.79755
G1 X107.021 Y137.935 E56.8995
G1 X106.604 Y138.519 E56.99497
G1 X106.123 Y139.118 E57.09717
G1 X105.634 Y139.661 E57.19439
G1 X105.112 Y140.18 E57.29232
G1 X104.595 Y140.642 E57.38457
G1 X103.994 Y141.121 E57.48681
G1 X103.377 Y141.558 E57.5874
G1 X102.738 Y141.96 E57.68784
G1 X102.125 Y142.299 E57.78103
G1 X101.457 Y142.622 E57.87975
G1 X100.773 Y142.908 E57.97838
G1 X100.033 Y143.168 E58.08273
G1 X99.318 Y143.374 E58.18172
G1 X98.554 Y143.547 E58.28594
G1 X97.835 Y143.667 E58.38292
G1 X97.09 Y143.75 E58.48265
G1 X96.363 Y143.79 E58.57951
G1 X95.604 Y143.789 E58.68049
G1 X94.899 Y143.749 E58.77444
G1 X94.165 Y143.667 E58.8727
G1 X93.446 Y143.547 E58.96968
G1 X92.687 Y143.376 E59.07318
G1 X91.991 Y143.176 E59.16953
G1 X91.785 Y143.113 E59.19819
G1 X91.224 Y142.907 E59.2777
G1 X90.547 Y142.624 E59.37532
G1 X89.866 Y142.293 E59.47605
G1 X89.213 Y141.93 E59.57545
G1 X88.564 Y141.52 E59.67758
G1 X87.979 Y141.102 E59.77323
G1 X87.381 Y140.622 E59.87525
G1 X86.837 Y140.132 E59.97266
G1 X86.317 Y139.609 E60.07078
G1 X85.856 Y139.093 E60.16283
G1 X85.378 Y138.493 E60.26489
G1 X84.941 Y137.876 E60.36548
G1 X84.537 Y137.233 E60.46651
G1 X84.199 Y136.621 E60.55952
G1 X83.878 Y135.957 E60.65764
G1 X83.592 Y135.273 E60.75628
G1 X83.332 Y134.533 E60.86063
G1 X83.126 Y133.818 E60.95962
G1 X82.953 Y133.054 E61.06384
G1 X82.833 Y132.335 E61.16081
G1 X82.751 Y131.605 E61.25855
G1 X82.711 Y130.907 E61.35156
G1 X82.7 Y130.518 E61.40333
G1 X82.7 Y93.234 E66.36362
G1 X82.74 Y92.498 E66.46168
G1 X82.859 Y91.77 E66.55982
G1 X83.057 Y91.06 E66.65788
G1 X83.33 Y90.375 E66.75598
G1 X83.676 Y89.724 E66.85407
G1 X84.09 Y89.114 E66.95215
G1 X84.692 Y88.426 E67.07377
G1 X84.926 Y88.192 E67.1178
G0 F6000 X85.491 Y88.757
G1 F1200 X86.008 Y88.297 E67.20987
G1 X86.575 Y87.899 E67.30203
G1 X87.184 Y87.569 E67.39418
G1 X87.827 Y87.311 E67.48635
G1 X88.495 Y87.129 E67.57847
G1 X89.18 Y87.026 E67.67062
G1 X89.734 Y87 E67.74441
G1 X140.266 Y87 E74.46721
G1 X140.957 Y87.04 E74.5593
G1 X141.64 Y87.159 E74.65153
G1 X142.303 Y87.357 E74.74359
G1 X142.94 Y87.629 E74.83574
G1 X143.541 Y87.973 E74.92787
G1 X144.099 Y88.384 E75.02007
G1 X144.509 Y88.757 E75.09381
G1 X144.743 Y88.991 E75.13784
G1 X145.203 Y89.508 E75.2299
G1 X145.601 Y90.075 E75.32207
G1 X145.931 Y90.684 E75.41422
G1 X146.189 Y91.327 E75.50639
G1 X146.371 Y91.995 E75.5985
G1 X146.474 Y92.68 E75.69066
G1 X146.5 Y93.234 E75.76445
G1 X146.499 Y130.535 E80.72699
G1 X146.489 Y130.878 E80.77264
G1 X146.45 Y131.559 E80.86339
G1 X146.378 Y132.204 E80.94974
G1 X146.258 Y132.923 E81.04672
G1 X146.106 Y133.594 E81.13825
G1 X145.9 Y134.31 E81.23737
G1 X145.669 Y134.966 E81.3299
G1 X145.385 Y135.645 E81.42781
G1 X145.094 Y136.245 E81.51653
G1 X144.731 Y136.898 E81.61593
G1 X144.37 Y137.47 E81.70591
G1 X143.953 Y138.054 E81.80138
G1 X143.529 Y138.582 E81.89148
G1 X143.04 Y139.125 E81.98869
G1 X142.579 Y139.584 E82.07524
G1 X142.062 Y140.046 E82.16748
G1 X141.532 Y140.468 E82.25762
G1 X140.915 Y140.905 E82.35821
G1 X140.351 Y141.26 E82.44687
G1 X139.738 Y141.599 E82.54006
G1 X139.149 Y141.884 E82.62711
G1 X138.465 Y142.17 E82.72575
G1 X137.811 Y142.399 E82.81794
G1 X137.096 Y142.605 E82.91693
G1 X136.423 Y142.758 E83.00875
G1 X135.704 Y142.878 E83.10573
G1 X135.046 Y142.951 E83.19381
G1 X134.319 Y142.991 E83.29067
G1 X133.649 Y142.99 E83.37981
G1 X132.944 Y142.95 E83.47376
G1 X132.296 Y142.878 E83.5605
G1 X131.577 Y142.758 E83.65748
G1 X130.908 Y142.607 E83.74872
G1 X130.212 Y142.407 E83.84506
G1 X130.028 Y142.351 E83.87065
G1 X129.533 Y142.169 E83.94082
G1 X128.856 Y141.886 E84.03844
G1 X128.255 Y141.594 E84.12733
G1 X127.602 Y141.231 E84.22673
G1 X127.029 Y140.869 E84.3169
G1 X126.444 Y140.451 E84.41255
G1 X125.916 Y140.027 E84.50265
G1 X125.372 Y139.537 E84.60005
G1 X124.914 Y139.076 E84.68651
G1 X124.453 Y138.56 E84.77856
G1 X124.031 Y138.031 E84.86859
G1 X123.594 Y137.414 E84.96918
G1 X123.238 Y136.847 E85.05825
G1 X122.9 Y136.235 E85.15126
G1 X122.616 Y135.649 E85.2379
G1 X122.33 Y134.965 E85.33653
G1 X122.101 Y134.311 E85.42872
G1 X121.895 Y133.596 E85.52771
G1 X121.742 Y132.921 E85.61979
G1 X121.622 Y132.201 E85.7169
G1 X121.549 Y131.547 E85.80445
G1 X121.504 Y130.73 E85.91331
G1 X121.471 Y129.958 E86.01611
G1 X121.405 Y129.419 E86.08836
G1 X121.296 Y128.902 E86.15865
G1 X121.149 Y128.407 E86.22735
G1 X120.945 Y127.885 E86.30191
G1 X120.711 Y127.406 E86.37284
G1 X120.43 Y126.934 E86.44592
G1 X120.132 Y126.518 E86.514
G1 X119.786 Y126.108 E86.58537
G1 X119.391 Y125.713 E86.65969
G1 X118.982 Y125.367 E86.73096
G1 X118.571 Y125.073 E86.79819
G1 X118.088 Y124.786 E86.87294
G1 X117.615 Y124.555 E86.94297
G1 X117.096 Y124.352 E87.01711
G1 X116.592 Y124.202 E87.08707
G1 X116.088 Y124.097 E87.15556
G1 X115.539 Y124.029 E87.22916
G1 X115 Y124.006 E87.30093
G1 X114.461 Y124.029 E87.37271
G1 X113.912 Y124.097 E87.4463
G1 X113.408 Y124.202 E87.5148
G1 X112.904 Y124.352 E87.58476
G1 X112.385 Y124.555 E87.6589
G1 X111.912 Y124.786 E87.72893
G1 X111.442 Y125.066 E87.80171
G1 X111.007 Y125.377 E87.87286
G1 X110.608 Y125.714 E87.94234
G1 X110.213 Y126.109 E88.01666
G1 X109.867 Y126.518 E88.08793
