;FLAVOR:Marlin
;TIME:1668
;Filament used: 3.99587m
;Layer height: 0.4
;MINX:84.342
;MINY:78
;MINZ:0.4
;MAXX:145.662
;MAXY:152
;MAXZ:27.6
;Generated with Cura_SteamEngine 4.13.1
M140 S60
M105
M190 S60
M104 S215
M105
M109 S215
M82 ;absolute extrusion mode
; --- Global Settings
; layer_height = 0.4
; smooth_spiralized_contours = True
; magic_mesh_surface_mode = normal
; machine_extruder_count = 1
; --- Single Extruder Settings
; speed_z_hop = 5
; retraction_amount = 4.5
; retraction_hop = 0.4
; retraction_hop_enabled = True
; retraction_enable = True
; retraction_speed = 70
; retraction_retract_speed = 70
; retraction_prime_speed = 70
; speed_travel = 175.0

; Ender 3 Custom Start G-code
G92 E0 ; Reset Extruder
G28 ; Home all axes
G1 Z2.0 F3000 ; Move Z Axis up little to prevent scratching of Heat Bed
G1 X0.1 Y20 Z0.3 F5000.0 ; Move to start position
G1 X0.1 Y200.0 Z0.3 F1500.0 E15 ; Draw the first line
G1 X0.4 Y200.0 Z0.3 F5000.0 ; Move to side a little
G1 X0.4 Y20 Z0.3 F1500.0 E30 ; Draw the second line
G92 E0 ; Reset Extruder
G1 Z2.0 F3000 ; Move Z Axis up little to prevent scratching of Heat Bed
G1 X5 Y20 Z0.3 F5000.0 ; Move over to prevent blob squish
G92 E0
G92 E0
G1 F4200 E-4.5
;LAYER_COUNT:68
;LAYER:0
M107
G1 F300 Z0.8
G0 F6000 X95.509 Y83.184 Z0.8
;TYPE:SKIRT
G1 F300 Z0.4
G1 F4200 E0.3326
G1 F1200 X95.697 Y82.97 E0.3705
G1 X96.665 Y81.988 E0.55395
G1 X96.79 Y81.875 E0.57636
G1 X97.195 Y81.525 E0.64758
G1 X97.442 Y81.321 E0.6902
G1 X98.523 Y80.526 E0.86872
G1 X98.621 Y80.462 E0.88429
G1 X99.06 Y80.188 E0.95314
G1 X99.355 Y80.013 E0.99877
G1 X100.624 Y79.359 E1.1887
G1 X100.771 Y79.294 E1.21009
G1 X101.174 Y79.125 E1.26823
G1 X101.452 Y79.014 E1.30805
G1 X102.757 Y78.578 E1.4911
G1 X102.919 Y78.534 E1.51343
G1 X103.411 Y78.411 E1.58091
G1 X103.711 Y78.343 E1.62183
G1 X105.103 Y78.112 E1.80955
G1 X105.245 Y78.097 E1.82855
G1 X105.748 Y78.055 E1.8957
G1 X106.08 Y78.034 E1.93996
G1 X106.491 Y78.014 E1.99471
G1 X106.86 Y78.005 E2.04381
G1 X107.372 Y78 E2.11193
G1 X115.124 Y78 E3.14326
G1 X116 Y78.011 E3.25982
G1 X116.388 Y78.023 E3.31146
G1 X116.517 Y78.029 E3.32864
G1 X117.042 Y78.065 E3.39865
G1 X117.384 Y78.096 E3.44434
G1 X118.777 Y78.305 E3.63174
G1 X118.924 Y78.336 E3.65172
G1 X119.462 Y78.463 E3.72527
G1 X119.778 Y78.545 E3.7687
G1 X120.977 Y78.924 E3.936
G1 X121.097 Y78.969 E3.95305
G1 X121.665 Y79.199 E4.03457
G1 X121.985 Y79.338 E4.08099
G1 X123.237 Y79.971 E4.26763
G1 X123.335 Y80.028 E4.28272
G1 X123.699 Y80.249 E4.33937
G1 X123.991 Y80.433 E4.38529
G1 X125.06 Y81.19 E4.55956
G1 X125.172 Y81.279 E4.57859
G1 X125.676 Y81.703 E4.66621
G1 X125.918 Y81.918 E4.70928
G1 X126.827 Y82.817 E4.87937
G1 X126.927 Y82.927 E4.89915
G1 X127.313 Y83.373 E4.97762
G1 X127.527 Y83.633 E5.02242
G1 X128.108 Y84.399 E5.15033
G1 X128.987 Y85.662 E5.35505
G1 X129.117 Y85.854 E5.38589
G1 X130.58 Y87.882 E5.71858
G1 X132.07 Y89.828 E6.04465
G1 X133.652 Y91.78 E6.37892
G1 X135.277 Y93.67 E6.71053
G1 X136.964 Y95.525 E7.04412
G1 X138.669 Y97.297 E7.37127
G1 X140.731 Y99.313 E7.75493
G1 X141.332 Y99.883 E7.86513
G1 X142.259 Y100.868 E8.04508
G1 X142.407 Y101.044 E8.07568
G1 X142.954 Y101.745 E8.19397
G1 X143.094 Y101.939 E8.2258
G1 X143.634 Y102.756 E8.35609
G1 X144.014 Y103.433 E8.45938
G1 X144.164 Y103.722 E8.5027
G1 X144.579 Y104.609 E8.63298
G1 X144.959 Y105.645 E8.77979
G1 X145.08 Y106.04 E8.83475
G1 X145.146 Y106.268 E8.86633
G1 X145.38 Y107.22 E8.99675
G1 X145.547 Y108.295 E9.14149
G1 X145.575 Y108.55 E9.17562
G1 X145.645 Y109.635 E9.32027
G1 X145.661 Y110.487 E9.43364
G1 X145.662 Y110.887 E9.48685
G1 X145.648 Y111.75 E9.60168
G1 X145.594 Y113.6 E9.84791
G1 X145.592 Y116.059 E10.17506
G1 X145.614 Y116.795 E10.27302
G1 X145.661 Y119.487 E10.63122
G1 X145.662 Y119.854 E10.68005
G1 X145.66 Y120.006 E10.70027
G1 X145.625 Y120.773 E10.80242
G1 X145.583 Y121.316 E10.87487
G1 X145.468 Y122.289 E11.00522
G1 X145.149 Y123.718 E11.20002
G1 X145.091 Y123.919 E11.22785
G1 X144.79 Y124.824 E11.35474
G1 X144.689 Y125.092 E11.39284
G1 X144.306 Y125.994 E11.52321
G1 X143.962 Y126.666 E11.62365
G1 X143.826 Y126.912 E11.66105
G1 X143.317 Y127.749 E11.79137
G1 X142.715 Y128.576 E11.92746
G1 X142.419 Y128.942 E11.99009
G1 X142.28 Y129.108 E12.01889
G1 X141.321 Y130.127 E12.20505
G1 X140.779 Y130.639 E12.30425
G1 X138.931 Y132.437 E12.64727
G1 X137.219 Y134.2 E12.97422
G1 X135.518 Y136.052 E13.30876
G1 X133.913 Y137.902 E13.6346
G1 X132.316 Y139.852 E13.96993
G1 X130.782 Y141.836 E14.30358
G1 X129.338 Y143.819 E14.62993
G1 X128.131 Y145.567 E14.91254
G1 X127.658 Y146.205 E15.01821
G1 X127.539 Y146.355 E15.04368
G1 X127.158 Y146.812 E15.12284
G1 X126.979 Y147.016 E15.15894
G1 X126.052 Y147.961 E15.33506
G1 X125.925 Y148.077 E15.35794
G1 X125.475 Y148.469 E15.43734
G1 X125.222 Y148.678 E15.481
G1 X124.14 Y149.473 E15.65963
G1 X124.042 Y149.537 E15.6752
G1 X123.603 Y149.811 E15.74405
G1 X123.308 Y149.986 E15.78968
G1 X122.046 Y150.637 E15.9786
G1 X121.897 Y150.703 E16.00028
G1 X121.487 Y150.875 E16.05943
G1 X121.209 Y150.986 E16.09926
G1 X119.873 Y151.431 E16.2866
G1 X119.713 Y151.474 E16.30864
G1 X119.272 Y151.584 E16.36911
G1 X118.97 Y151.653 E16.41032
G1 X117.602 Y151.883 E16.59488
G1 X117.474 Y151.897 E16.61201
G1 X116.924 Y151.944 E16.68545
G1 X116.575 Y151.966 E16.73197
G1 X116.156 Y151.986 E16.78778
G1 X115.823 Y151.994 E16.83209
G1 X115.235 Y152 E16.91032
G1 X107.368 Y151.999 E17.95695
G1 X106.662 Y151.989 E18.05089
G1 X106.314 Y151.979 E18.09721
G1 X106.175 Y151.973 E18.11572
G1 X105.58 Y151.932 E18.19506
G1 X105.258 Y151.902 E18.23809
G1 X103.924 Y151.702 E18.41755
G1 X103.756 Y151.667 E18.44038
G1 X103.203 Y151.538 E18.51593
G1 X102.897 Y151.459 E18.55797
G1 X101.684 Y151.076 E18.7272
G1 X101.564 Y151.031 E18.74425
G1 X100.964 Y150.787 E18.83042
G1 X100.642 Y150.646 E18.87719
G1 X99.49 Y150.066 E19.04878
G1 X99.394 Y150.011 E19.0635
G1 X98.95 Y149.744 E19.13243
G1 X98.654 Y149.557 E19.17901
G1 X97.577 Y148.791 E19.35484
G1 X97.468 Y148.704 E19.37339
G1 X97.002 Y148.312 E19.45441
G1 X96.759 Y148.097 E19.49758
G1 X95.787 Y147.133 E19.6797
G1 X95.689 Y147.024 E19.6992
G1 X95.338 Y146.616 E19.77081
G1 X95.127 Y146.359 E19.81505
G1 X94.376 Y145.338 E19.98367
G1 X94.303 Y145.227 E20.00134
G1 X93.991 Y144.725 E20.07998
G1 X93.826 Y144.445 E20.12322
G1 X93.237 Y143.313 E20.29299
G1 X93.173 Y143.172 E20.31359
G1 X92.937 Y142.616 E20.39394
G1 X92.821 Y142.322 E20.43599
G1 X92.493 Y141.375 E20.56933
G1 X92.274 Y140.646 E20.67059
G1 X91.898 Y139.333 E20.8523
G1 X91.149 Y136.967 E21.18247
G1 X90.327 Y134.608 E21.51482
G1 X89.445 Y132.288 E21.84502
G1 X88.494 Y129.987 E22.17627
G1 X87.478 Y127.709 E22.50811
G1 X87.2 Y127.126 E22.59404
G1 X86.731 Y126.106 E22.7434
G1 X86.568 Y125.735 E22.79731
G1 X86.469 Y125.501 E22.83111
G1 X86.326 Y125.149 E22.88166
G1 X86.168 Y124.736 E22.94049
G1 X85.792 Y123.703 E23.08674
G1 X85.662 Y123.327 E23.13967
G1 X85.562 Y123.021 E23.1825
G1 X85.436 Y122.612 E23.23944
G1 X85.339 Y122.275 E23.28609
G1 X85.211 Y121.791 E23.3527
G1 X85.034 Y121.063 E23.45237
G1 X84.974 Y120.807 E23.48735
G1 X84.917 Y120.548 E23.52263
G1 X84.825 Y120.087 E23.58518
G1 X84.778 Y119.825 E23.62059
G1 X84.663 Y119.14 E23.713
G1 X84.603 Y118.745 E23.76615
G1 X84.552 Y118.364 E23.81729
G1 X84.5 Y117.906 E23.87861
G1 X84.434 Y117.211 E23.97149
G1 X84.403 Y116.826 E24.02288
G1 X84.38 Y116.458 E24.07193
G1 X84.36 Y115.98 E24.13558
G1 X84.344 Y115.271 E24.22993
G1 X84.342 Y114.88 E24.28195
G1 X84.346 Y114.479 E24.33531
G1 X84.36 Y113.993 E24.39999
G1 X84.395 Y113.301 E24.49217
G1 X84.418 Y112.959 E24.53777
G1 X84.462 Y112.436 E24.6076
G1 X84.502 Y112.066 E24.65711
G1 X84.595 Y111.316 E24.75766
G1 X84.648 Y110.937 E24.80857
G1 X84.702 Y110.592 E24.85503
G1 X84.785 Y110.127 E24.91787
G1 X84.924 Y109.422 E25.01347
G1 X85.013 Y109.006 E25.07007
G1 X85.08 Y108.72 E25.10915
G1 X85.161 Y108.395 E25.15371
G1 X85.229 Y108.137 E25.1892
G1 X85.398 Y107.524 E25.2738
G1 X85.489 Y107.209 E25.31742
G1 X85.576 Y106.924 E25.35706
G1 X85.705 Y106.525 E25.41285
G1 X85.79 Y106.28 E25.44735
G1 X86.041 Y105.578 E25.54654
G1 X86.178 Y105.213 E25.59841
G1 X86.296 Y104.914 E25.64117
G1 X86.474 Y104.487 E25.70272
G1 X86.778 Y103.796 E25.80315
G1 X86.913 Y103.499 E25.84656
G1 X87.165 Y102.966 E25.92499
G1 X88.195 Y100.707 E26.2553
G1 X89.172 Y98.394 E26.58935
G1 X90.064 Y96.106 E26.91606
G1 X90.914 Y93.729 E27.25191
G1 X91.694 Y91.335 E27.58688
G1 X92.252 Y89.464 E27.84664
G1 X92.457 Y88.751 E27.94534
G1 X92.743 Y87.882 E28.06705
G1 X92.791 Y87.753 E28.08536
G1 X93.034 Y87.151 E28.17173
G1 X93.168 Y86.843 E28.21642
G1 X93.77 Y85.647 E28.39455
G1 X93.835 Y85.534 E28.4119
G1 X94.115 Y85.072 E28.48377
G1 X94.285 Y84.805 E28.52588
G1 X95.043 Y83.746 E28.69914
G1 X95.16 Y83.6 E28.72403
G1 X95.509 Y83.184 E28.79627
G0 F6000 X96.11 Y83.712
G1 F1200 X96.298 Y83.498 E28.83417
G1 X97.201 Y82.582 E29.0053
G1 X97.326 Y82.469 E29.02771
G1 X97.705 Y82.141 E29.0944
G1 X97.952 Y81.937 E29.13702
G1 X98.96 Y81.196 E29.30346
G1 X99.058 Y81.132 E29.31903
G1 X99.468 Y80.876 E29.38334
G1 X99.763 Y80.701 E29.42897
G1 X100.948 Y80.091 E29.60628
G1 X101.095 Y80.026 E29.62767
G1 X101.471 Y79.867 E29.68198
G1 X101.749 Y79.756 E29.7218
G1 X102.966 Y79.35 E29.89249
G1 X103.128 Y79.306 E29.91482
G1 X103.588 Y79.191 E29.9779
G1 X103.888 Y79.123 E30.01883
G1 X105.187 Y78.908 E30.194
G1 X105.329 Y78.893 E30.21299
G1 X105.799 Y78.853 E30.27575
G1 X106.131 Y78.832 E30.32001
G1 X106.524 Y78.813 E30.37235
G1 X106.869 Y78.805 E30.41827
G1 X107.372 Y78.8 E30.48519
G1 X115.124 Y78.8 E31.51652
G1 X115.989 Y78.811 E31.63161
G1 X116.35 Y78.822 E31.67966
G1 X116.479 Y78.828 E31.69684
G1 X116.97 Y78.862 E31.76232
G1 X117.312 Y78.893 E31.808
G1 X118.612 Y79.088 E31.98289
G1 X118.759 Y79.119 E32.00288
G1 X119.261 Y79.237 E32.07149
G1 X119.577 Y79.319 E32.11492
G1 X120.697 Y79.673 E32.27119
G1 X120.817 Y79.718 E32.28824
G1 X121.346 Y79.932 E32.36416
G1 X121.666 Y80.071 E32.41058
G1 X122.835 Y80.663 E32.58491
G1 X123.273 Y80.925 E32.65281
G1 X123.565 Y81.109 E32.69872
G1 X124.562 Y81.816 E32.86133
G1 X124.674 Y81.905 E32.88036
G1 X125.145 Y82.301 E32.96223
G1 X125.387 Y82.516 E33.0053
G1 X126.235 Y83.355 E33.164
G1 X126.335 Y83.465 E33.18378
G1 X126.696 Y83.881 E33.25706
G1 X126.91 Y84.141 E33.30186
G1 X127.451 Y84.856 E33.42114
G1 X128.325 Y86.111 E33.62461
G1 X128.467 Y86.32 E33.65822
G1 X129.934 Y88.354 E33.99187
G1 X131.461 Y90.349 E34.32611
G1 X133.037 Y92.294 E34.65916
G1 X134.678 Y94.202 E34.99397
G1 X136.345 Y96.034 E35.3235
G1 X138.115 Y97.874 E35.66317
G1 X140.22 Y99.932 E36.05482
G1 X140.781 Y100.464 E36.15768
G1 X141.647 Y101.383 E36.32568
G1 X141.795 Y101.559 E36.35627
G1 X142.305 Y102.213 E36.46661
G1 X142.445 Y102.407 E36.49844
G1 X142.966 Y103.197 E36.62434
G1 X143.304 Y103.801 E36.71642
G1 X143.454 Y104.09 E36.75974
G1 X143.854 Y104.948 E36.88568
G1 X144.196 Y105.885 E37.01839
G1 X144.311 Y106.263 E37.07095
G1 X144.377 Y106.491 E37.10253
G1 X144.602 Y107.41 E37.22841
G1 X144.752 Y108.383 E37.35938
G1 X144.78 Y108.638 E37.39351
G1 X144.845 Y109.65 E37.52843
G1 X144.861 Y110.502 E37.6418
G1 X144.862 Y110.875 E37.69142
G1 X144.848 Y111.726 E37.80465
G1 X144.794 Y113.576 E38.05088
G1 X144.792 Y116.084 E38.38455
G1 X144.814 Y116.808 E38.48092
G1 X144.861 Y119.5 E38.83912
G1 X144.862 Y119.843 E38.88475
G1 X144.86 Y119.995 E38.90497
G1 X144.828 Y120.712 E39.00046
G1 X144.786 Y121.255 E39.07291
G1 X144.673 Y122.194 E39.19874
G1 X144.38 Y123.496 E39.37629
G1 X144.322 Y123.697 E39.40412
G1 X144.041 Y124.542 E39.5226
G1 X143.94 Y124.81 E39.5607
G1 X143.57 Y125.68 E39.68648
G1 X143.262 Y126.279 E39.77609
G1 X143.126 Y126.525 E39.81348
G1 X142.633 Y127.333 E39.93941
G1 X142.089 Y128.078 E40.06214
G1 X141.806 Y128.428 E40.12202
G1 X141.667 Y128.594 E40.15082
G1 X140.771 Y129.545 E40.32465
G1 X140.272 Y130.016 E40.41594
G1 X138.393 Y131.844 E40.76471
G1 X136.622 Y133.667 E41.10284
G1 X134.924 Y135.516 E41.43683
G1 X133.29 Y137.401 E41.76871
G1 X131.695 Y139.347 E42.10346
G1 X130.151 Y141.345 E42.4394
G1 X128.674 Y143.373 E42.77318
G1 X127.473 Y145.112 E43.05435
G1 X127.031 Y145.708 E43.15306
G1 X126.912 Y145.858 E43.17854
G1 X126.557 Y146.284 E43.25231
G1 X126.378 Y146.488 E43.28842
G1 X125.512 Y147.371 E43.45296
G1 X125.385 Y147.487 E43.47584
G1 X124.965 Y147.852 E43.54987
G1 X124.712 Y148.061 E43.59353
G1 X123.703 Y148.803 E43.76016
G1 X123.605 Y148.867 E43.77573
G1 X123.195 Y149.123 E43.84004
G1 X122.9 Y149.298 E43.88567
G1 X121.722 Y149.905 E44.06198
G1 X121.573 Y149.971 E44.08366
G1 X121.19 Y150.133 E44.13898
G1 X120.912 Y150.244 E44.17881
G1 X119.666 Y150.658 E44.35349
G1 X119.506 Y150.701 E44.37553
G1 X119.094 Y150.804 E44.43203
G1 X118.792 Y150.873 E44.47324
G1 X117.515 Y151.088 E44.64552
G1 X117.387 Y151.102 E44.66265
G1 X116.874 Y151.146 E44.73116
G1 X116.525 Y151.168 E44.77768
G1 X116.125 Y151.187 E44.83095
G1 X115.814 Y151.194 E44.87234
G1 X115.235 Y151.2 E44.94938
G1 X107.379 Y151.199 E45.99454
G1 X106.673 Y151.189 E46.08848
G1 X106.349 Y151.18 E46.1316
G1 X106.21 Y151.174 E46.15011
G1 X105.654 Y151.136 E46.22425
G1 X105.332 Y151.106 E46.26728
G1 X104.087 Y150.919 E46.43477
G1 X103.919 Y150.884 E46.4576
G1 X103.403 Y150.763 E46.52811
G1 X103.097 Y150.684 E46.57016
G1 X101.964 Y150.327 E46.7282
G1 X101.844 Y150.282 E46.74525
G1 X101.284 Y150.054 E46.82569
G1 X100.962 Y149.913 E46.87246
G1 X99.887 Y149.372 E47.03256
G1 X99.791 Y149.317 E47.04728
G1 X99.377 Y149.068 E47.11156
G1 X99.081 Y148.881 E47.15814
G1 X98.076 Y148.166 E47.32223
G1 X97.967 Y148.079 E47.34078
G1 X97.532 Y147.713 E47.41641
G1 X97.289 Y147.498 E47.45958
G1 X96.382 Y146.598 E47.62957
G1 X96.284 Y146.489 E47.64907
G1 X95.957 Y146.108 E47.71587
G1 X95.746 Y145.851 E47.76011
G1 X95.044 Y144.898 E47.91758
G1 X94.971 Y144.787 E47.93526
G1 X94.68 Y144.319 E48.00858
G1 X94.515 Y144.039 E48.05181
G1 X93.965 Y142.982 E48.21034
G1 X93.901 Y142.841 E48.23094
G1 X93.682 Y142.323 E48.30576
G1 X93.566 Y142.029 E48.34781
G1 X93.259 Y141.145 E48.4723
G1 X93.044 Y140.426 E48.57215
G1 X92.668 Y139.114 E48.75372
G1 X91.908 Y136.715 E49.08852
G1 X91.079 Y134.333 E49.42407
G1 X90.19 Y131.995 E49.75684
G1 X89.229 Y129.67 E50.09154
G1 X88.207 Y127.38 E50.42517
G1 X87.927 Y126.792 E50.51181
G1 X87.458 Y125.772 E50.66117
G1 X87.302 Y125.419 E50.71252
G1 X87.068 Y124.847 E50.79474
G1 X86.92 Y124.463 E50.84949
G1 X86.544 Y123.43 E50.99574
G1 X86.422 Y123.078 E51.0453
G1 X86.322 Y122.772 E51.08813
G1 X86.205 Y122.391 E51.14116
G1 X86.108 Y122.054 E51.18781
G1 X85.988 Y121.602 E51.25003
G1 X85.811 Y120.874 E51.3497
G1 X85.699 Y120.376 E51.41761
G1 X85.611 Y119.938 E51.47705
G1 X85.567 Y119.692 E51.5103
G1 X85.452 Y119.007 E51.60271
G1 X85.396 Y118.639 E51.65223
G1 X85.345 Y118.258 E51.70337
G1 X85.296 Y117.831 E51.76055
G1 X85.23 Y117.136 E51.85343
G1 X85.202 Y116.776 E51.90147
G1 X85.179 Y116.408 E51.95052
G1 X85.16 Y115.962 E52.00991
G1 X85.144 Y115.253 E52.10426
G1 X85.142 Y114.888 E52.15282
G1 X85.146 Y114.487 E52.20617
G1 X85.159 Y114.033 E52.2666
G1 X85.194 Y113.341 E52.35878
G1 X85.215 Y113.022 E52.40131
G1 X85.236 Y112.757 E52.43668
G1 X85.268 Y112.417 E52.48211
G1 X85.296 Y112.165 E52.51585
G1 X85.389 Y111.415 E52.61639
G1 X85.439 Y111.061 E52.66395
G1 X85.493 Y110.716 E52.71041
G1 X85.57 Y110.281 E52.76918
G1 X85.709 Y109.576 E52.86478
G1 X85.792 Y109.188 E52.91757
G1 X85.903 Y108.721 E52.98143
G1 X86 Y108.349 E53.03258
G1 X86.169 Y107.736 E53.11717
G1 X86.254 Y107.443 E53.15776
G1 X86.341 Y107.158 E53.19741
G1 X86.464 Y106.778 E53.25054
G1 X86.543 Y106.549 E53.28277
G1 X86.794 Y105.847 E53.38196
G1 X86.922 Y105.507 E53.43029
G1 X87.04 Y105.208 E53.47305
G1 X87.206 Y104.809 E53.53055
G1 X87.51 Y104.118 E53.63098
G1 X87.637 Y103.841 E53.67152
G1 X87.859 Y103.371 E53.74068
G1 X88.931 Y101.023 E54.08407
G1 X89.907 Y98.712 E54.41783
G1 X90.827 Y96.351 E54.75494
G1 X91.666 Y94.004 E55.08654
G1 X92.447 Y91.608 E55.42181
G1 X93.037 Y89.628 E55.69667
G1 X93.226 Y88.972 E55.7875
G1 X93.493 Y88.161 E55.90109
G1 X93.541 Y88.032 E55.9194
G1 X93.768 Y87.47 E56.00004
G1 X93.902 Y87.162 E56.04473
G1 X94.464 Y86.046 E56.21096
G1 X94.529 Y85.933 E56.22831
